!!!!SEGMENT: pl-wtm--iii-41-945--001-001_mlynarski-emil--concerto-pour-violon-op-11-i-allegro-moderato.krn
!!!cenid: 18xx:4272
!!!COM: Młynarski, Emil
!!!COM-rismID: pe50043899
!!!CDT: 1870/07/18-1935/04/05
!!!CNT: Polish
!!!OPR: Concerto pour Violon op. 11
!!!OTL: I. Allegro moderato
!!!OMV: 001
!!!PDT: 1899
!!!AGN:
!!!SMS-siglum: PL-Wtm
!!!SMS-shelfmark: III.41.945
!!!SMS-shelfwork: 001-001 M
!!!SMS-variant:
!!!SMS-altvar:
!!!NIFC-rismSourceID: 1001152236
!!!NIFC-rismChildID: 1001152236
!!!NIFC-islandoraID: pl-wtm:22924
!!!URL-pdf-islandora: https://repozytorium.nifc.pl/islandora/object/pl-wtm:22924/datastream/PDF/view
!!!URL-scan: https://polish.musicsources.pl/pl/lokalizacje/galeria/druki-muzyczne/17788/3 @EN{Scan on Polish Music Sources Website (Piano)} @PL{Skany w portalu Dziedzictwo Muzyki Polskiej w otwartym dostępie (Fortepian)}
!!!URL-scan: https://polish.musicsources.pl/pl/lokalizacje/galeria/druki-muzyczne/17788-concerto/17 @EN{Scan on Polish Music Sources Website (Violin)} @PL{Skany w portalu Dziedzictwo Muzyki Polskiej w otwartym dostępie (Skrzypce)}
!!!ONB-nifc: UWAGA: Partię skrzypiec należy wpisać na podstawie głosu skrzypiec, a nie linii pomocniczej w partii fortepianu. Fortepian: skany 0003-0007; Skrzypce: skany 0017-0019
!!!OMD: Allegro moderato
!!!AIN: 1 piano 1 violn
!!!key:
**kern	**kern	**dynam	**kern	**fing	**dynam
*part2	*part2	*part2	*part1	*part1	*part1
*staff3	*staff2	*	*staff1	*	*
*	*I"PIANO.	*	*I"VIOLON.	*	*
*	*I'	*	*I'	*	*
*	*Ipiano	*	*Ivioln	*	*
*	*ICklav	*	*ICstr	*	*
*	*IGacmp	*	*IGsolo	*	*
*clefF4	*clefG2	*	*clefG2	*	*
*k[b-]	*k[b-]	*	*k[b-]	*	*
*d:	*d:	*	*d:	*	*
*M4/4	*M4/4	*	*M4/4	*	*
*met(c)	*met(c)	*	*met(c)	*	*
*MM84	*MM84	*	*MM84	*	*
=1	=1	=1	=1	=1	=1
!	!LO:TX:a:i:t=espressivo	!	!	!	!
!	!	!	!LO:TX:a:t=15	!	!
1DD 1AA 1D	(2d/ 2f 2a 2dd	p	1r	.	.
.	4A/ 4d 4f 4a	.	.	.	.
.	4d/ 4f 4a 4dd	.	.	.	.
=2	=2	=2	=2	=2	=2
4AAA/ 4AA	4e/ 4a 4cc#X 4ee	.	1r	.	.
2FFF/ 2FF	2f\ 2a 2dd 2ff	.	.	.	.
4GGG/ 4GG	4bn\ 4dd 4ff 4aa	.	.	.	.
=3	=3	=3	=3	=3	=3
*^	*^	*	*	*	*
1CC 1GG 1E	4rB	1g) 1cc 1ee 1gg	4r	.	1r	.	.
.	8rB	.	8r	.	.	.	.
.	8GG'>/	.	8G'>/	.	.	.	.
.	4C'>/	.	4c'>/	.	.	.	.
.	4G'>/	.	4g'>/	.	.	.	.
=4	=4	=4	=4	=4	=4	=4	=4
*	*cue	*	*cue	*	*	*	*
1C 1G 1e	4c/	(4cc\ 4ee 4gg 4ccc	4cc/	.	1r	.	.
*	*Xcue	*	*Xcue	*	*	*	*
.	4ryy	2g/ 2cc 2ee 2gg	4ryy	.	.	.	.
.	2ryy	.	2ryy	.	.	.	.
.	.	4e/ 4g 4cc 4ee	.	.	.	.	.
*v	*v	*	*	*	*	*	*
*	*v	*v	*	*	*	*
=5	=5	=5	=5	=5	=5
2AA\ 2E 2A	2c/ 2e 2a 2cc	.	1r	.	.
4GG/ 4G	4d/ 4g 4bn 4dd	.	.	.	.
4CC/ 4C	4e/ 4g 4cc 4ee	.	.	.	.
=6	=6	=6	=6	=6	=6
*^	*^	*	*	*	*
1GGG 1GG	4rA	1d) 1g 1bn 1dd	4raa	.	1r	.	.
.	8rA	.	8raa	.	.	.	.
.	8G'>/	.	8g'>/	.	.	.	.
.	4d'>/	.	4dd'>/	.	.	.	.
.	4g'>/	.	4gg'>/	.	.	.	.
!LO:LB:g=original	!LO:LB:g=original	!LO:LB:g=original	!LO:LB:g=original	!	!	!	!
=7	=7	=7	=7	=7	=7	=7	=7
*	*cue	*	*cue	*	*	*	*
2GG\ 2D 2B-X	4dd'>/	(2.d/ 2.g 2.b- 2.dd	4ddd'/	.	1r	.	.
*	*Xcue	*	*Xcue	*	*	*	*
.	4ryy	.	4ryy	.	.	.	.
4EE/ 4E	2ryy	.	2ryy	.	.	.	.
4AAA/ 4AA	.	4e/ 4a 4cc#X 4ee	.	.	.	.	.
*v	*v	*	*	*	*	*	*
*	*v	*v	*	*	*	*
=8	=8	=8	=8	=8	=8
2.DD/ 2.AA 2.D	4f\ 4a 4dd 4ff	.	1r	.	.
.	2d/ 2f 2a 2dd	.	.	.	.
4GGG/ 4GG	4g\ 4b- 4dd 4gg	.	.	.	.
=9	=9	=9	=9	=9	=9
*^	*^	*	*	*	*
1AAA 1AA	4rB	1e) 1a 1cc#X 1ee	4rAA	.	1r	.	.
.	8rB	.	8rAA	.	.	.	.
.	8A'>/	.	8a'>/	.	.	.	.
.	4e'>/	.	4ee'>/	.	.	.	.
.	4a'>/	.	4aa'>/	.	.	.	.
=10	=10	=10	=10	=10	=10	=10	=10
*	*cue	*	*cue	*	*	*	*
2A/ 2d 2f	4dd'>/	(2a\ 2dd 2ff	4ddd'>/	.	1r	.	.
*	*Xcue	*	*Xcue	*	*	*	*
.	4ryy	.	4ryy	.	.	.	.
4G/ 4A 4e	2r	4g\ 4a 4ee	2ryy	.	.	.	.
4F/ 4A 4d	.	4f/ 4a 4dd	.	.	.	.	.
=11	=11	=11	=11	=11	=11	=11	=11
1AA 1E	2Bn/	4g/ 4dd 4aa	2r	>	1r	.	.
.	.	2bn/	.	.	.	.	.
.	4A/	.	2e\	.	.	.	.
.	4G/	4cc#X/	.	]	.	.	.
=12	=12	=12	=12	=12	=12	=12	=12
[<1DD [<1AA [>1F	4rB	[<1d) [<1a [>1dd	4raa	pp	1r	.	.
.	8rB	.	8raa	.	.	.	.
.	8D'>/	.	8d'>/	.	.	.	.
.	4A'>/	.	4a'>/	.	.	.	.
.	4f'>/	.	4ff'>/	.	.	.	.
=13	=13	=13	=13	=13	=13	=13	=13
1DD_< 1AA_< 1F_>	4d'>/	1d_< 1a_< 1dd_<	4dd/	.	1r	.	.
.	8rd	.	8rff	.	.	.	.
*	*clefG2	*	*	*	*	*	*
.	8d'/	.	8dd'>/	.	.	.	.
.	4a'/	.	4aa'>/	.	.	.	.
.	4ff'/	.	4fff'>/	.	.	.	.
*	*	*v	*v	*	*	*	*
!LO:LB:g=original	!LO:LB:g=original	!LO:LB:g=original	!	!	!	!
=14	=14	=14	=14	=14	=14	=14
*clefF4	*	*	*	*	*	*
!	!LO:TX:t=P:problem:dźwięk w G2, akord w F4	!	!	!	!	!
2DD/] 2AA] 2F]	4dd'/	2d/] 2a] 2dd]	.	1r	.	.
.	4ryy	.	.	.	.	.
*v	*v	*	*	*	*	*
*	*8va	*	*	*	*
*clefF4	*	*	*	*	*
*^	*	*	*	*	*
[<2D\ [>2A [>2f	2ryy	[<2ddd\ [>2fff [>2aaa [>2dddd	.	.	.	.
*v	*v	*	*	*	*	*
=15	=15	=15	=15	=15	=15
2.D\] 2.A] 2.f]	2.ddd\] 2.fff] 2.aaa] 2.dddd]	.	1r	.	.
*	*X8va	*	*	*	*
4r	4r	.	.	.	.
=16	=16	=16	=16	=16	=16
*8ba	*	*	*	*	*
(>(32qqAAA/LLL	.	.	.	.	.
32qqGGG/	.	.	.	.	.
32qqFFF/	.	.	.	.	.
32qqEEE/JJJ)	.	.	.	.	.
!	!LO:TX:a:t=A	!LO:DY:rj	!LO:TX:a:B:t=A:rj	!	!
!	!	!	!LO:TX:a:t=1	!	!
4DDD/) 4DD	4D/ 4F 4A 4d	f	1r	.	.
*X8ba	*	*	*	*	*
(16DD/LL 16AA	(16d/LL 16f 16a	p	.	.	.
16D/	16A/	.	.	.	.
16DD/ 16AA	16d/ 16f 16a	.	.	.	.
16D/JJ)	16A/JJ)	.	.	.	.
*tremolo	*tremolo	*	*	*	*
(16DD/LL 16AA	(16d/LL 16f 16a	.	.	.	.
16D/	16A/	.	.	.	.
16DD/ 16AA	16d/ 16f 16a	.	.	.	.
16D/	16A/	.	.	.	.
16DD/ 16AA	16d/ 16f 16a	.	.	.	.
16D/	16A/	.	.	.	.
16DD/ 16AA	16d/ 16f 16a	.	.	.	.
16D/JJ)	16A/JJ)	.	.	.	.
=17	=17	=17	=17	=17	=17
(16DD/LL 16AA	(16d/LL 16f 16a	.	4r	.	.
16D/	16A/	.	.	.	.
16DD/ 16AA	16d/ 16f 16a	.	.	.	.
16D/	16A/	.	.	.	.
16DD/ 16AA	16d/ 16f 16a	.	(16ff^<\LL 16fff	1 4	f
16D/	16A/	.	16ff#X^<\ 16fff#X	1 4	.
16DD/ 16AA	16d/ 16f 16a	.	16gg^<\ 16ggg	1 4	.
16D/JJ)	16A/JJ)	.	16gg#X^<\JJ 16ggg#X	1 4	.
(16DD/LL 16AA	(16d/LL 16f 16a	.	4aa\) 4aaa	.	.
16D/	16A/	.	.	.	.
16DD/ 16AA	16d/ 16f 16a	.	.	.	.
16D/	16A/	.	.	.	.
16DD/ 16AA	16d/ 16f 16a	.	8.ee\L 8.eee	.	.
16D/	16A/	.	.	.	.
16DD/ 16AA	16d/ 16f 16a	.	.	.	.
16D/JJ)	16A/JJ)	.	16ffn\Jk 16fffn	.	.
*Xtremolo	*Xtremolo	*	*	*	*
=18	=18	=18	=18	=18	=18
(16DD/LL 16AA	(16d/LL 16f 16a	<	2a\ 2ccc#X	0 2	.
16D/	16A/	.	.	.	.
16DD/ 16AA	16d/ 16f 16a	.	.	.	.
16D/JJ)	16A/JJ)	.	.	.	.
(16AA/LL 16D	(16f/LL 16a 16dd	.	.	.	.
16F/	16d/	.	.	.	.
16AA/ 16D	16f/ 16a 16dd	.	.	.	.
16F/JJ)	16d/JJ)	.	.	.	.
(16D\LL 16F	(16a\LL 16dd 16ff	.	2d\ [<2ff [>2ddd	1 2	.
16A\	16f\	.	.	.	.
16D\ 16F	16a\ 16dd 16ff	.	.	.	.
16A\JJ)	16f\JJ)	.	.	.	.
(16F\LL 16A	(16dd\LL 16ff 16aa	.	.	.	.
16d\	16a\	[	.	.	.
16F\ 16A	16dd\ 16ff 16aa	.	.	.	.
16d\JJ)	16a\JJ)	.	.	.	.
!LO:LB:g=original	!LO:LB:g=original	!	!	!	!
=19	=19	=19	=19	=19	=19
*	*	*	*Xtuplet	*	*
!	!	!LO:DY:rj	!	!	!
4A\ 4d 4f 4a	4dd\ 4ff 4aa 4ddd	f	12ff\L] 12ddd]	.	.
.	.	.	(12ff^<\ 12ddd	.	.
.	.	.	12gg#X^<\J 12eee	3 4	.
4r	4r	.	12aa^<\L) 12fff	3 4	.
.	.	.	12dd'\ 12aa	.	.
.	.	.	12ff'\J 12ddd	.	.
4r	4r	.	12ff^\L 12ddd	.	.
.	.	.	(12a^<\ 12ff	.	.
.	.	.	12b#X^<\J 12gg#X	2 3	.
8r	8r	.	12cc#X^<\L) 12aa	2 3	.
.	.	.	12a'\ 12ee	.	.
!	!	!LO:DY:rj	!	!	!
8A\ 8e 8g	8a\ 8cc#X 8ee 8aa	mf	.	.	.
.	.	.	12ee'\J 12ggn	.	.
!	!	!	!LO:LB:g=original	!	!
=20	=20	=20	=20	=20	=20
4d\ 4f	4a^\ 4dd 4ff 4aa	.	12d'\L 12dd 12ff	.	.
.	.	.	12dd\ 12ff	.	.
.	.	.	12cc#X\J 12ee	.	.
4r	4r	.	(12ee^\L 12gg	.	.
.	.	.	12dd\) 12ff	.	.
.	.	.	12a\J 12ee	.	.
4r	4r	.	12f'/L 12dd	.	.
.	.	.	12d/ 12f	.	.
.	.	.	12c#X/J 12e	.	.
8r	8r	.	(12e^>/L 12g	.	.
.	.	.	12d/) 12f	.	.
8AA\ 8E 8G	8A/ 8c#X 8e 8a	.	.	.	.
.	.	.	12A/J 12e 12a	.	.
=21	=21	=21	=21	=21	=21
4D^\ 4F	4A^>/ 4d 4f 4a	.	4d/ 4f 4a	.	.
4r	4r	.	4B-u/ 4g 4dd	.	.
4r	4r	.	4B-u/ 4g#X 4dd 4ff	.	.
4BB-\ 4B-	4d/ 4e 4g#X	.	4B-u/ 4g# 4dd 4ee	.	.
=22	=22	=22	=22	=22	=22
4AA^\ 4A	4c#X^>/ 4e 4a	f	4Av\ 4e 4a 4ccc#X	.	f
4AAA/ 4AA	4e/ 4a 4cc#X 4ee	.	4eu\ 4cc#X 4aa	.	.
4r	4r	.	4r	.	.
*clefG2	*	*	*	*	*
!	!	!	!LO:TX:a:t=Flag.	!	!
4e'/ 4bn	4ee'\ 4gg# 4bbn 4eee	pp	4ee\ 4bbn	0 0	p
=23	=23	=23	=23	=23	=23
4a'^\ 4cc#X	4ee^\ 4aa 4ccc#X	.	4dd\ 4aa	0 0	.
.	.	.	(>8qa/	.	.
!	!	!	!LO:N:n=2:vis=2:notehead=rhombus	!	!
4A'/ 4e 4a	4cc#X'\ 4ee 4aa	.	4aar\) 4dddr 4aaaayy	.	.
2r	2r	.	2r	.	.
*clefF4	*	*	*	*	*
!LO:PB:g=original	!LO:PB:g=original	!	!	!	!
=24	=24	=24	=24	=24	=24
*8ba	*	*	*	*	*
(>(32qqDD/LLL	.	.	.	.	.
32qqCC/	.	.	.	.	.
32qqBBB-/	.	.	.	.	.
32qqAAA/JJJ)	.	.	.	.	.
!	!	!LO:DY:rj	!	!	!
4GGG/) 4GG	4D/ 4G 4B- 4d	f	4r	.	.
*X8ba	*	*	*	*	*
(16GG/LL 16D	(16g/LL 16b- 16dd	p	(16ff#X^<\LL 16fff#X	.	f
16G/	16d/	.	16gg^<\ 16ggg	.	.
16GG/ 16D	16g/ 16b- 16dd	.	16gg#X^<\ 16ggg#X	.	.
16G/JJ)	16d/JJ)	.	16aa^<\JJ 16aaa	.	.
*tremolo	*tremolo	*	*	*	*
(16GG/LL 16D	(16g/LL 16b- 16dd	.	4bb-\) 4bbb-	.	.
16G/	16d/	.	.	.	.
16GG/ 16D	16g/ 16b- 16dd	.	.	.	.
16G/	16d/	.	.	.	.
16GG/ 16D	16g/ 16b- 16dd	.	8.ff#\L 8.fff#	.	.
16G/	16d/	.	.	.	.
16GG/ 16D	16g/ 16b- 16dd	.	.	.	.
16G/JJ)	16d/JJ)	.	16gg#\Jk 16ggg#	.	.
*Xtremolo	*Xtremolo	*	*	*	*
!	!	!	!LO:LB:g=original	!	!
=25	=25	=25	=25	=25	=25
(16GG/LL 16D	(16g/LL 16b- 16dd	<	2a\ 2ccc#X	0 1	.
16G/	16d/	.	.	.	.
16GG/ 16D	16g/ 16b- 16dd	.	.	.	.
16G/JJ)	16d/JJ)	.	.	.	.
(16D\LL 16G	(16b-\LL 16dd 16gg	.	.	.	.
16B-\	16g\	.	.	.	.
16D\ 16G	16b-\ 16dd 16gg	.	.	.	.
16B-\JJ)	16g\JJ)	.	.	.	.
(16G\LL 16B-	(16dd\LL 16gg 16bb-	.	2G\ 2b- [<2gg [>2ddd	2 2	.
16d\	16b-\	.	.	.	.
16G\ 16B-	16dd\ 16gg 16bb-	.	.	.	.
16d\JJ)	16b-\JJ)	.	.	.	.
(16B-\LL 16d	(16gg\LL 16bb- 16ddd	.	.	.	.
16g\	16dd\	.	.	.	.
16B-\ 16d	16gg\ 16bb- 16ddd	[	.	.	.
16g\JJ)	16dd\JJ)	.	.	.	.
=26	=26	=26	=26	=26	=26
4G\ 4B- 4d 4g	4gg\ 4bb- 4ddd 4ggg	f	12gg\L] 12ddd]	.	.
.	.	.	(12gg^<\ 12ddd	1 1	.
.	.	.	12aa^<\J 12fff#X	3 4	.
4r	4r	.	12bb-^<\L) 12ggg	3 4	.
.	.	.	12dd'\ 12bb-	.	.
.	.	.	12gg'\J 12ddd	4 4	.
4r	4r	.	12gg^\L 12ddd	.	.
.	.	.	(12b-^<\ 12gg	.	.
.	.	.	12cc#X^<\J 12aa	3 4	.
8r	8r	.	12dd^<\L) 12bb-	3 4	.
.	.	.	12a'\ 12ff#X	.	.
*clefG2	*	*	*	*	*
8d/ 8a 8cc	8dd\ 8ff#X 8aa 8ddd	mf	.	.	.
.	.	.	12ccn'\J 12aa	.	.
=27	=27	=27	=27	=27	=27
4g^>/ 4b-	4dd^<\ 4gg 4bb- 4ddd	.	12G'\L 12d 12b- 12gg	.	.
.	.	.	12gg\ 12bb-	.	.
.	.	.	12ff#X\J 12aa	.	.
4r	4r	.	(12aa^<\L 12ccc	2 4	.
.	.	.	12gg\) 12bb-	2 4	.
.	.	.	12dd'\J 12aa	.	.
4r	4r	.	12b-'\L 12gg	.	.
.	.	.	12g\ 12b-	.	.
.	.	.	12f#X\J 12a	.	.
8r	8r	.	(12a^/L 12cc	.	.
.	.	.	12g/) 12b-	.	.
*clefF4	*	*	*	*	*
8D\ 8A 8c	8d/ 8f#X 8a 8dd	.	.	.	.
.	.	.	12d/J 12a	.	.
!LO:LB:g=original	!LO:LB:g=original	!	!	!	!
=28	=28	=28	=28	=28	=28
4G^\ 4B-	4d^>/ 4g 4b- 4dd	.	4B-/ 4g	.	.
4r	4r	.	4Gu/ 4e 4dd	.	.
4r	4r	.	4B-u/ 4g 4dd 4ee	.	.
4AA\ 4A	4c#X/ 4g 4a 4cc#X	.	4Au/ 4e 4cc#X 4aa	.	.
!	!	!	!LO:LB:g=original	!	!
=29	=29	=29	=29	=29	=29
4DD/ 4D	4d/ 4f#X 4a 4dd	f	4dv\ 4dd 4fff#X	.	.
4DDD/ 4DD	4f#\ 4a 4dd 4ff#X	.	4du\ 4ff#X 4ddd	.	.
4r	4r	.	4r	.	.
*clefG2	*	*	*	*	*
!	!	!	!LO:TX:a:t=Flag.	!	!
4a\ 4ee	4aa'\ 4ccc#X 4eee 4aaa	pp	4a\ 4ee	20 0	p
=30	=30	=30	=30	=30	=30
4dd'^\ 4ff#X	4aa'\ 4ddd 4fff#X	.	4g^<\ 4dd	0 0	.
.	.	.	(>8qd/	.	.
!	!	!	!LO:N:n=2:vis=2:notehead=rhombus	!	!
4d'/ 4a 4dd	4ff#X'\ 4aa 4ddd	.	4ddr'\) 4ggr 4ddddyy	.	.
2r	2r	.	2r	.	.
=31	=31	=31	=31	=31	=31
8r	8r	sf	4.c\ 4.g 4.ee-X 4.eee-X	.	f
8A/L 8a	8G/L 8c 8e-X 8g	.	.	.	.
8A^/J 8a	8G^>/J 8c 8e- 8g	.	.	.	.
8r	8r	.	16ddd'\LL	.	.
.	.	.	16ccc'\JJ	.	.
8r	8r	.	4.eee-^\	.	.
8A/L 8a	8G/L 8c 8e- 8g	.	.	.	.
8A^/J 8a	8G^>/J 8c 8e- 8g	.	.	.	.
8r	8r	.	16ddd\LL	.	.
.	.	.	16ccc\JJ	.	.
=32	=32	=32	=32	=32	=32
8r	8r	.	(16eee-X^\LL	.	.
.	.	.	16ccc\)	.	.
8A/ 8e 8a	8G/ 8c 8e-X 8g	.	(16ccc^\	.	.
.	.	.	16gg\JJ)	.	.
8r	8r	.	(16gg^\LL	.	.
.	.	.	16ee-X\)	.	.
8e/ 8a 8cc-X 8ee	8c/ 8e- 8g 8cc	.	(16ee-^\	.	.
.	.	.	16cc\JJ)	.	.
8r	8r	.	(16cc^>/LL	.	.
.	.	.	16g/)	.	.
8a\ 8cc- 8ee 8aa	8e-/ 8g 8cc 8ee-X	<	(16g^>/	.	.
.	.	.	16e-X/JJ)	.	.
8r	8r	.	(16e-^>/LL	.	.
.	.	.	16c/)	.	.
8cc-\ 8ee 8aa 8ccc-X	8g\ 8cc 8ee- 8gg	.	(16c^>/	.	.
.	.	.	16G/JJ)	.	.
*clefF4	*	*	*	*	*
!LO:LB:g=original	!LO:LB:g=original	!	!LO:LB:g=original	!	!
=33	=33	=33	=33	=33	=33
8r	8r	.	(16Bn/LL	.	.
.	.	.	16c/	.	.
8G\ 8c 8e-X 8g	8cc\ 8ee-X 8gg 8ccc	.	16e-X/	.	.
.	.	.	16g/JJ	.	.
4r	4r	.	16bn\LL	.	.
.	.	.	16cc\	.	.
.	.	.	16ee-X\	.	.
.	.	.	16gg\JJ	.	.
4r	4r	.	16bbn\LL	.	.
.	.	.	16ccc\	.	.
.	.	.	16eee-X\	.	.
.	.	.	16ggg\JJ)	.	.
*clefG2	*	*	*	*	*
*	*8va	*	*	*	*
4g\ 4cc 4ee-X 4gg	4ccc\ 4eee- 4ggg 4cccc	.	8cccc'\	.	sf
.	.	.	8r	.	.
*	*X8va	*	*	*	*
*clefF4	*	*	*	*	*
=34	=34	=34	=34	=34	=34
8r	8r	sf	4.c#X\ 4.a 4.een 4.eeen	.	f
8AAA/L 8AA	8G/L 8A 8c#X 8a	.	.	.	.
8AAA^>/J 8AA	8G^>/J 8A 8c# 8a	.	.	.	.
8r	8r	.	16ddd\LL	.	.
.	.	.	16ccc#X\JJ	.	.
8r	8r	.	4.eee^\	.	.
8AAA/L 8AA	8G/L 8c# 8a	.	.	.	.
8AAA/J 8AA	8G^>/J 8A 8c# 8a	.	.	.	.
8r	8r	.	16ddd\LL	.	.
.	.	.	16ccc#\JJ	.	.
=35	=35	=35	=35	=35	=35
8r	8r	.	(16eee^\LL	.	.
.	.	.	16ccc#X\)	.	.
8AAA/ 8AA	8G/ 8A 8c#X 8a	.	(16ccc#^\	.	.
.	.	.	16aa\JJ)	.	.
8r	8r	.	(16aa^\LL	.	.
.	.	.	16ee\)	.	.
8AA\ 8E 8G 8A	8c#/ 8g 8a 8cc#X	.	(16ee^\	.	.
.	.	.	16cc#X\JJ)	.	.
8r	8r	.	(16cc#^>/LL	.	.
.	.	.	16a/)	.	.
8E\ 8G 8A 8c#X	8e/ 8a 8cc# 8ee	<	(16a^>/	.	.
.	.	.	16e/JJ)	.	.
8r	8r	.	(16e^>/LL	.	.
.	.	.	16c#X/)	.	.
8G\ 8A 8c# 8e	8a\ 8cc# 8ee 8aa	.	16c#^>/	.	.
.	.	.	16A/JJ	.	.
!	!	!	!LO:LB:g=original	!	!
=36	=36	=36	=36	=36	=36
8r	8r	.	(16G#X/LL	.	.
.	.	.	16A/	.	.
8A\ 8e 8g 8a	8cc#X\ 8ee 8aa 8ccc#X	.	16c#X/	.	.
.	.	.	16e/JJ	.	.
4r	4r	.	16g#X\LL	.	.
.	.	.	16a\	.	.
.	.	.	16cc#X\	.	.
.	.	.	16ee\JJ	.	.
4r	4r	.	16gg#X\LL	.	.
.	.	.	16aa\	.	.
.	.	.	16ccc#X\	.	.
.	.	.	16eee\JJ)	.	.
*clefG2	*	*	*	*	*
4a\ 4ee 4gg	4aa\ 4ccc# 4eee 4aaa	f	8aaa'\	.	sf
.	.	.	8r	.	.
*clefF4	*	*	*	*	*
!LO:LB:g=original	!LO:LB:g=original	!	!	!	!
=37	=37	=37	=37	=37	=37
.	.	.	(>8qa/	.	.
8r	8r	.	4.gggn\)	.	.
8AAA/L 8AA	8G/L 8A 8c#X 8g	.	.	.	.
8AAA^/J 8AA	8G^>/J 8A 8c# 8g	.	.	.	.
8r	8r	.	16fff\LL	.	.
.	.	.	16eee\JJ	.	.
*	*	*	*tuplet	*	*
!	!	!	!LO:TUP:a	!	!
8r	8r	.	(12fff\L	.	<
.	.	.	12ddd\	.	.
8AAA/ 8AA	8G#X/ 8d 8f 8g#X	.	.	.	.
.	.	.	12bbn\J	.	.
!	!	!	!LO:TUP:a	!	!
8r	8r	<	12gg#X\L	.	.
.	.	.	12bb\	.	.
8AAA/ 8AA	8Bn/ 8f 8g# 8bn	.	.	.	.
.	.	.	12ddd\J)	.	.
=38	=38	=38	=38	=38	=38
.	.	.	(>8qa/	.	.
8r	8r	.	4.gggn\)	.	.
8AAA/L 8AA	8c#X/L 8gn 8a 8cc#X	.	.	.	.
8AAA/J 8AA	8c#/J 8g 8a 8cc#	.	.	.	.
8r	8r	.	16fff\LL	.	.
.	.	.	16eee\JJ	.	.
!	!	!	!LO:TUP:a	!	!
8r	8r	.	(12ggg#X\L	.	.
.	.	.	12fff\	.	.
8AAA/ 8AA	8d/ 8f 8g#X 8bn 8dd	.	.	.	.
.	.	.	12ddd\J	.	.
!	!	!	!LO:TUP:a	!	!
8r	8r	.	12bbn\L	.	.
.	.	.	12ddd\	.	.
8AAA/ 8AA	8d/ 8f 8g# 8b 8dd	.	.	.	.
.	.	.	12fff\J)	.	.
!	!	!	!LO:LB:g=original	!	!
=39	=39	=39	=39	=39	=39
.	.	.	8qa/	.	.
[1AAA [1AA	(2d/ 2f 2a 2dd	p	(16aaa\LL	.	p
.	.	.	16gggn\	.	.
.	.	.	16fff\	.	.
.	.	.	16eee\JJ	.	.
.	.	.	16fff\LL	.	.
.	.	.	16eee\	.	.
.	.	.	16ddd\	.	.
.	.	.	16aa\JJ)	.	.
.	4A/ 4d 4f 4a	.	(16aa\LL	.	.
.	.	.	16gg\	.	.
.	.	.	16ff\	.	.
.	.	.	16ee\JJ	.	.
.	4d/ 4f 4a 4dd	.	16ff\LL	.	.
.	.	.	16ee\	.	.
.	.	.	16dd\	.	.
!	!	!	!	!	!LO:HP:a
.	.	.	16a\JJ)	.	<[
=40	=40	=40	=40	=40	=40
!	!	!	!LO:TUP:b	!	!LO:HP:a
1AAA_ 1AA_	4e/ 4a 4cc#X 4ee	<	(12e/L	.	>]
.	.	.	12a/	.	.
.	.	.	12cc#X/J	.	.
.	2f\ 2a 2dd 2ff	.	16dd/LL	.	.
.	.	.	16a/	.	.
.	.	.	16g/	.	.
!	!	!	!	!	!LO:HP:a
.	.	.	16f/JJ)	.	<[
!	!	!	!LO:TUP:b	!	!LO:HP:a
.	.	.	(12e/L	.	>]
.	.	.	12f/	.	.
.	.	.	12g#X/J	.	.
.	4a\) 4dd 4ff 4aa	[[	16a/LL	.	.
.	.	.	16f/	.	.
.	.	.	16e/	.	.
!	!	!	!	!	!LO:HP:a
.	.	.	16d/JJ)	.	<[
!LO:LB:g=original	!LO:LB:g=original	!	!	!	!
=41	=41	=41	=41	=41	=41
*^	*	*	*	*	*
*	*	*	*	*Xtuplet	*	*
!	!	!	!	!	!	!LO:HP:a
1AAA_< 1AA_>	[<1A [>1e [>1g	[1a [1cc#X [1ee [1aa	.	(12A/L	.	>]
.	.	.	.	12c#X/	.	.
.	.	.	.	12e/J	.	.
.	.	.	.	12gn/L	.	.
.	.	.	.	12f/	.	.
!	!	!	!	!	!	!LO:HP:a
.	.	.	.	12e/J	.	<[
!	!	!	!	!	!	!LO:HP:a
.	.	.	.	12c#/L	.	>]
.	.	.	.	12e/	.	.
.	.	.	.	12g/J	.	.
.	.	.	.	12b-/L	.	.
.	.	.	.	12a/	.	.
!	!	!	!	!	!	!LO:HP:a
.	.	.	.	12g/J)	.	<[
!	!	!	!	!LO:LB:g=original	!	!
=42	=42	=42	=42	=42	=42	=42
!	!	!	!	!	!	!LO:HP:a
1AAA_< 1AA_>	1A_< 1e_> 1g_>	1a_ 1cc#_ 1ee_ 1aa_	.	(12a\L	.	>]
.	.	.	.	12cc#X\	.	.
.	.	.	.	12ee\J	.	.
.	.	.	.	12gg\L	.	.
.	.	.	.	12ff\	.	.
!	!	!	!	!	!	!LO:HP:a
.	.	.	.	12ee\J	.	<[
!	!	!	!	!	!	!LO:HP:a
.	.	.	.	12cc#\L	.	>]
.	.	.	.	12ee\	.	.
.	.	.	.	12gg\J	.	.
.	.	.	.	12bb-\L	.	.
.	.	.	.	12aa\	.	.
.	.	.	.	12gg\J)	.	.
=43	=43	=43	=43	=43	=43	=43
4AAA'<\] 4AA]	4A'>/] 4e] 4g]	4a'>\] 4cc#] 4ee] 4aa]	.	(12eee\L	0	.
.	.	.	.	12aa\	0	.
.	.	.	.	12eee\J	.	.
4r	4r	4r	.	12aa\L	.	.
.	.	.	.	12ee\	.	.
.	.	.	.	12aa\J	.	.
2r	2r	2r	.	12ee\L	0	.
.	.	.	.	12a\	0	.
.	.	.	.	12ee\J	.	.
.	.	.	.	12a/L	.	.
.	.	.	.	12e/	.	.
.	.	.	.	12a/J)	.	.
*v	*v	*	*	*	*	*
=44	=44	=44	=44	=44	=44
!	!LO:TX:b:i:t=poco rit.	!	!	!	!
1r	1r	.	(12cc#X\L	.	.
.	.	.	12b#X\	.	.
.	.	.	12cc#\J	.	.
.	.	.	12ee\L	.	.
.	.	.	12dd#X\	.	.
!	!	!	!LO:TX:b:i:t=poco rit.	!	!
.	.	.	12ee\J	.	.
.	.	.	12aa\L	.	.
.	.	.	12gg#X\	.	.
.	.	.	12aa\J	.	.
.	.	.	12bb-\L	.	.
.	.	.	12bbn\	.	.
.	.	.	12ccc#X\J)	.	.
*clefG2	*	*	*	*	*
!LO:PB:g=original	!LO:PB:g=original	!	!LO:LB:g=original	!	!
=45	=45	=45	=45	=45	=45
!	!	!	!LO:TX:b:i:t=espress. simplice	!	!
!	!LO:TX:a:t=B	!	!LO:TX:a:i:t=a tempo	!	!
!	!LO:TX:b:i:t=a tempo	!	!LO:TX:a:t=B:rj	!	!
4r	(2.dd\ 2.ff 2.aa	p	(2ddd\	.	.
!LO:TX:a:i:t=espr.	!	!	!	!	!
(8d/L	.	.	.	.	.
8e/J	.	.	.	.	.
4f/)	.	.	4aa\	.	.
(12g/L	4dd\) 4gg 4bb-	.	4ddd\)	.	.
12a/	.	.	.	.	.
12b-/J	.	.	.	.	.
=46	=46	=46	=46	=46	=46
2.a/)	(4ee\ 4gg 4ccc#X	.	(4eee\	.	.
.	2ff\ 2aa 2ddd	.	2fff\	.	.
!	!	!LO:HP:b=2	!	!	!
(8g/L	4gg\) 4ddd 4fff	<	4aaa\)	.	.
8bn/J)	.	[	.	.	.
=47	=47	=47	=47	=47	=47
*	*^	*	*	*	*
*	*Xtuplet	*	*	*	*	*
!	!	!	!LO:HP:b=2	!	!	!
(4.cc\	(12ccc/L 12eee	2gg\	>	1ggg	.	.
.	12ddd/	.	.	.	.	.
.	12ccc/J	.	.	.	.	.
.	12bb-/L	.	.	.	.	.
.	12ccc/	.	.	.	.	.
8bn\)	.	.	.	.	.	.
.	12ddd/J	.	.	.	.	.
(8cc/L	12eee/L	12ccc\L	]	.	.	.
.	12aa/	12dd#X\	.	.	.	.
8c/	.	.	.	.	.	.
.	12gg/J	12ee\J	.	.	.	.
8e/	12bb-/L	12gg\L	.	.	.	.
.	12ccc/	12ee\	.	.	.	.
8f/J)	.	.	.	.	.	.
.	12ddd#X/J)	12aa\J	.	.	.	.
*	*v	*v	*	*	*	*
=48	=48	=48	=48	=48	=48
([2g/	(4gg\ 4ccc 4eee	.	(4cccc\	.	.
.	4ee\ 4gg 4ccc	.	2ggg\	.	.
8g/L]	2ee\) 2gg	.	.	.	.
8a/	.	.	.	.	.
8bn/	.	.	4eee\)	.	.
8cc/J)	.	.	.	.	.
!LO:LB:g=original	!LO:LB:g=original	!	!	!	!
=49	=49	=49	=49	=49	=49
4a/	(2cc\ 2ee 2aa	.	(2ccc\	.	.
4e/	.	.	.	.	.
4g/	4dd\ 4gg 4bbn	.	4ddd\	.	.
(8cc^\L	4ee\) 4gg 4ccc	.	4eee\)	.	.
8a\J)	.	.	.	.	.
=50	=50	=50	=50	=50	=50
*Xtuplet	*	*	*	*	*
(12g\L 12bn	(12dd\L 12gg 12bbn	.	1ggg	.	.
12ff#X\	12ddd\	.	.	.	.
12ee\J	12ccc\J	.	.	.	.
12dd\L	12bb\L	.	.	.	.
12ee\	12ccc\	.	.	.	.
12dd\J	12bb\J	.	.	.	.
12cc#X\L	12aa#X\L	.	.	.	.
12dd\	12bb\	.	.	.	.
12ccn\J	12aan\J	.	.	.	.
12b\L	12gg\L	.	.	.	.
12dd\	12bb\	.	.	.	.
12gg\J)	12ddd\J)	.	.	.	.
=51	=51	=51	=51	=51	=51
(4.g/	(2.dd\ 2.gg 2.bb-X	.	2.ddd\	.	.
8a/)	.	.	.	.	.
4b-X/	.	.	.	.	.
(8a/L	4ee\) 4aa 4ccc#X	.	4eee\	.	.
8e/J)	.	.	.	.	.
=52	=52	=52	=52	=52	=52
(8d/L	(4ff\ 4aa 4ddd	.	(4fff\	.	.
8e/J	.	.	.	.	.
4f/)	2dd\ 2ff 2aa	.	2ddd\	.	.
(8e/L	.	.	.	.	.
8d/	.	.	.	.	.
8c/	4dd\) 4gg 4ddd	.	4ggg\)	.	.
8B-/J)	.	.	.	.	.
!LO:LB:g=original	!LO:LB:g=original	!	!LO:LB:g=original	!	!
=53	=53	=53	=53	=53	=53
*	*^	*	*	*	*
4A/	(12ee\L 12ccc#X	2ryy	.	1eee	.	.
.	12cc#X\ 12aa	.	.	.	.	.
.	12ee\J 12ccc#	.	.	.	.	.
4e/	12dd\L 12bb-	.	.	.	.	.
.	12ee\ 12cccn	.	.	.	.	.
.	12dd\J 12bb-	.	.	.	.	.
[2a/	12aa/L	(4cc#\	.	.	.	.
.	12gg#X/	.	.	.	.	.
.	12aa/J	.	.	.	.	.
.	12bb-/L	12ggn\L)	.	.	.	.
.	12bbn/	12ee\	.	.	.	.
.	12ccc#X/J)	12gg\J	.	.	.	.
*	*v	*v	*	*	*	*
=54	=54	=54	=54	=54	=54
4a/]	(2ff\ 2aa 2ddd	.	(2fff\	.	.
4d/ 4dd	.	.	.	.	.
4cn/ 4ccn	4ee\ 4ff 4aa	.	4eee\	.	.
4B-/ 4b-	4dd\) 4ff 4bb-	<	4ddd\)	.	<
=55	=55	=55	=55	=55	=55
4.A/ 4.d 4.f 4.a	(4dd\ 4ff 4aa 4ddd	.	(4aaa\	.	.
.	2bn\ 2dd	.	2bbn\	.	.
8G#X/ 8g#X	.	.	.	.	.
8Gn/L 8gn	.	.	.	.	.
8F#X/ 8f#X	.	.	.	.	.
8Fn/ 8fn	4a\) 4cc#X 4gg	.	4ccc#X\)	.	.
8E/J 8e	.	.	.	.	.
*clefF4	*	*	*	*	*
!LO:LB:g=original	!LO:LB:g=original	!	!	!	!
=56	=56	=56	=56	=56	=56
*^	*	*	*	*	*
(8AA\L	8F/	(4a\ 4dd 4ff 4aa	.	(4fff\	.	.
8A\	8ryy	.	.	.	.	.
8Bn\	4ryy	2g#X\ 2dd 2ff	.	2gg#X\	.	.
8d\J	.	.	.	.	.	.
8f\L	2ryy	.	.	.	.	.
8e\	.	.	.	.	.	.
8d\	.	4a\) 4dd 4ff	.	4aa\)	.	.
8A\J)	.	.	.	.	.	.
*v	*v	*	*	*	*	*
=57	=57	=57	=57	=57	=57
1G	1b- 1ee-X	.	(8bb-\L	.	.
.	.	.	8b-\	.	.
.	.	.	8ee-X\	.	.
.	.	.	8gg\J	.	.
.	.	.	8ff\L	.	.
.	.	.	8ee-\	.	.
.	.	.	8b-\	.	.
.	.	.	8bb-\J)	.	.
=58	=58	=58	=58	=58	=58
!LO:TX:b:i:t=espress.	!	!	!	!	!
(8AA/	1f 1a 1dd	sf > ]]	[1aa	.	sf >
4D\	.	.	.	.	.
8F\	.	.	.	.	.
8E\L	.	.	.	.	.
8D\	.	.	.	.	.
8AA\	.	.	.	.	.
8A\J)	.	.	.	.	.
=59	=59	=59	=59	=59	=59
*	*^	*	*	*	*
1AA 1G	1a 1cc#X 1ee	(8A</	.	4aa\]	.	]
!	!LO:TX:b:i:t=poco rit.	!	!	!	!	!
.	.	4c#X</	.	.	.	.
!	!	!	!	!LO:TX:a:i:t=poco rit.	!	!
.	.	.	.	4r	.	.
.	.	8e/	.	.	.	.
.	.	8g/L	.	2r	.	.
.	.	8a/	.	.	.	.
.	.	8cc#/	.	.	.	.
.	.	8ee/J)	.	.	.	.
!LO:PB:g=original	!LO:PB:g=original	!LO:PB:g=original	!	!LO:PB:g=original	!	!
=60	=60	=60	=60	=60	=60	=60
*MM126	*MM126	*	*	*MM126	*	*
!	!LO:TX:a:t=C	!	!	!LO:TX:a:t=2	!	!
!	!LO:TX:b:i:t=m.g.	!	!	!LO:TX:a:t=Poco più mosso.	!	!
!	!LO:TX:a:t=Più mosso.	!	!	!LO:TX:a:t=C:rj	!	!
[1DD [1AA [1D	(8a/L 8ff	8r	p	1r	.	.
.	8dd/	8f\L	.	.	.	.
.	8a/	8d\	.	.	.	.
.	8f/J	8A\J	.	.	.	.
.	8a/L	8d\L	.	.	.	.
.	8dd/	8f\	.	.	.	.
.	8.ff/	8.a\	.	.	.	.
.	16aa/Jk)	16dd\Jk	.	.	.	.
=61	=61	=61	=61	=61	=61	=61
2..DD/] 2..AA] 2..D]	(8aa/L	8dd\L	.	1r	.	.
.	8ff/	8a\	.	.	.	.
.	8dd/	8f\	.	.	.	.
.	8a/J	8d\J	.	.	.	.
.	8dd/L	8f\L	<	.	.	.
.	8ff/	8a\	.	.	.	.
.	8aa/J)	8dd\J	.	.	.	.
*clefG2	*	*	*	*	*	*
16r	16r	8ryy	.	.	.	.
16c/ 16g#X	16cc\ 16ee 16aa-X 16ccc	.	[ sf	.	.	.
*	*v	*v	*	*	*	*
=62	=62	=62	=62	=62	=62
[1f [1a	[1cc [>1ff [>1aa [>1ccc	p	(8fff\	.	mf
.	.	.	4gg#X^\	.	.
.	.	.	8aa\)	.	.
.	.	.	(8ccc\	.	.
.	.	.	4ee^\	.	.
.	.	.	8ff\)	.	.
=63	=63	=63	=63	=63	=63
2f/] 2a]	2cc\] 2ff] 2aa] 2ccc]	.	(8aa\L	.	.
.	.	.	8bn\	.	.
.	.	.	8cc\	.	.
.	.	.	8ff\J	.	.
2r	2r	.	8g#X/L	.	.
.	.	.	8a/	.	.
.	.	.	8cc/	.	.
.	.	.	8f/J)	.	.
*clefF4	*	*	*	*	*
!LO:LB:g=original	!LO:LB:g=original	!	!	!	!
=64	=64	=64	=64	=64	=64
*	*^	*	*	*	*
!	!LO:TX:b:i:t=m.g.	!	!	!LO:TX:a:t=2	!	!
[1AAA [1EE [1C	(8e/L 8cc	8r	p	1r	.	.
.	8a/	8c\L	.	.	.	.
.	8e/	8A\	.	.	.	.
.	8c/J	8E\J	.	.	.	.
.	8e/L	8A\L	.	.	.	.
.	8a/	8c\	.	.	.	.
.	8.cc/	8.e\	.	.	.	.
.	16ee/Jk)	16a\Jk	.	.	.	.
=65	=65	=65	=65	=65	=65	=65
2..AAA/] 2..EE] 2..C]	(8ee/L	8a\L	.	1r	.	.
.	8cc/	8e\	.	.	.	.
.	8a/	8c\	.	.	.	.
.	8e/J	8A\J	.	.	.	.
.	8a/L	8c\L	<	.	.	.
.	8cc/	8e\	.	.	.	.
.	8ee/J)	8a\J	.	.	.	.
16r	16r	8ryy	.	.	.	.
16G\ 16d#X	16g\ 16bn 16dd#X 16gg	.	[ sf	.	.	.
*	*v	*v	*	*	*	*
=66	=66	=66	=66	=66	=66
[1c [1e	[<1g [>1cc [>1ee [>1gg	p	(8ccc\	.	mf
.	.	.	4dd#X^\	.	.
.	.	.	8ee\)	.	.
.	.	.	(8gg\	.	.
.	.	.	4bn^\	.	.
.	.	.	8cc\)	.	.
=67	=67	=67	=67	=67	=67
!	!	!	!	!	!LO:HP:a
2c\] 2e]	2g\] 2cc] 2ee] 2gg]	.	(8ee/L	.	>
.	.	.	8f#X/	.	.
.	.	.	8g/	.	.
.	.	.	8cc/J	.	.
2r	2r	.	8d#X/L	.	.
.	.	.	8e/	.	.
.	.	.	8g/	.	.
.	.	.	8cc/J)	.	]]
=68	=68	=68	=68	=68	=68
*^	*^	*	*	*	*
(4BB-/	2ryy	(4G/ 4e	2c\	.	(16ee\LL	.	.
.	.	.	.	.	16g\	.	.
.	.	.	.	.	16cc\	.	.
.	.	.	.	.	16ee\JJ	.	.
4AA/)	.	4F/) 4f	.	.	8ff^\)	.	sf
.	.	.	.	.	8r	.	.
2C/	(4EE\	(4G/	2c\	.	(16gg\LL	.	.
.	.	.	.	.	16cc\	.	.
.	.	.	.	.	16ee\	.	.
.	.	.	.	.	16gg\JJ	.	.
.	4FF\)	4A/)	.	.	8aa^\)	.	sf
.	.	.	.	.	8r	.	.
*v	*v	*	*	*	*	*	*
*	*v	*v	*	*	*	*
!LO:LB:g=original	!LO:LB:g=original	!	!LO:LB:g=original	!	!
=69	=69	=69	=69	=69	=69
1FF#X 1D	1A 1c 1d	.	(8ddd\	.	mf
.	.	.	4ee#X^\	.	.
.	.	.	8ff#X\	.	.
.	.	.	8aa\L)	.	.
.	.	.	(8dd\	.	.
.	.	.	8ff#\)	.	.
.	.	.	8a'\J	.	.
=70	=70	=70	=70	=70	=70
*^	*^	*	*	*	*
2D/	(4C\	(4A/ 4f#X	2d\	.	(16dd\LL	.	.
.	.	.	.	.	16a\	.	.
.	.	.	.	.	16dd\	.	.
.	.	.	.	.	16ff#X\JJ	.	.
.	4BBn\)	4G/) 4g	.	.	8gg^\)	.	sf
.	.	.	.	.	8r	.	.
2D/	(4FF#X\	(4A/ 4a	2d\	.	(16aa\LL	.	.
.	.	.	.	.	16dd\	.	.
.	.	.	.	.	16aa\	.	.
.	.	.	.	.	16ddd\JJ	.	.
.	4GG\)	4Bn/) 4bn	.	.	8bbn^\)	.	sf
.	.	.	.	.	8r	.	.
=71	=71	=71	=71	=71	=71	=71	=71
2E/	(4D\	(4Bn/ 4g#X	2e\	<	(16gg#X\LL	.	<
.	.	.	.	.	16bn\	.	.
.	.	.	.	.	16ee\	.	.
.	.	.	.	.	16gg#\JJ	.	.
.	4C\)	4A/) 4a	.	.	8aa\)	.	.
.	.	.	.	.	8r	.	.
2E/	(4GG#X\	(4B/ 4bn	2e\	.	(16bbn\LL	.	.
.	.	.	.	.	16ee\	.	.
.	.	.	.	.	16bb\	.	.
.	.	.	.	.	16eee\JJ	.	.
.	4AA\)	4c/) 4cc	.	.	8ccc\)	.	.
.	.	.	.	.	8r	.	.
=72	=72	=72	=72	=72	=72	=72	=72
2F#X/	(4AA#X\	(4c#X/ 4cc#X	2f#X\	.	(16fff#X\LL	.	.
.	.	.	.	.	16ff#X\	.	.
.	.	.	.	.	16ccc#X\	.	.
.	.	.	.	.	16fff#\JJ	.	.
.	4BBn\)	4d/) 4dd	.	.	8ddd\)	.	.
.	.	.	.	.	8r	.	.
2F#/	(4E\	(4c#/ 4a#X	2f#\	.	(16aa#X\LL	.	.
.	.	.	.	.	16cc#X\	.	.
.	.	.	.	.	16ff#\	.	.
.	.	.	.	.	16aa#\JJ	.	.
.	4D\)	4Bn/) 4bn	.	.	8bbn\)	.	.
.	.	.	.	.	8r	.	.
!LO:LB:g=original	!LO:LB:g=original	!LO:LB:g=original	!LO:LB:g=original	!	!LO:LB:g=original	!	!
=73	=73	=73	=73	=73	=73	=73	=73
2F#X/	(4AA#X\	(>4cc#X/ 4ff#X	2f#\	.	(16fff#X\LL	.	.
.	.	.	.	.	16ff#X\	.	.
.	.	.	.	.	16ccc#X\	.	.
.	.	.	.	.	16fff#\JJ	.	.
.	4BBn\)	4bn/) 4dd	.	.	8ddd\)	.	.
.	.	.	.	.	8r	.	.
2C#X\ 2A#X 2e	2ryy	2f#X\ 2a#X 2cc# 2ff#	2ryy	<	(16aa#X\LL	.	<
.	.	.	.	.	16bbn\	.	.
.	.	.	.	.	16ccc#\	.	.
.	.	.	.	.	16ddd\JJ	.	.
.	.	.	.	.	16eee\LL	.	.
.	.	.	.	.	16fff#\	.	.
.	.	.	.	.	16ggg#X\	.	.
.	.	.	.	[[	16aaa#X\JJ	.	[[
*	*	*v	*v	*	*	*	*
*v	*v	*	*	*	*	*
=74	=74	=74	=74	=74	=74
1D 1Bn	1f#X 1bn 1ff#X	mf > ]]	8bbbn\)	.	f
.	.	.	(4ccc#X\	.	.
.	.	.	8ddd\	.	>
.	.	.	8aaa#X\L)	.	.
.	.	.	(8bbn\	.	.
.	.	.	8ddd\)	.	.
.	.	.	8ff#X'\J	.	]]
=75	=75	=75	=75	=75	=75
1F#X 1Bn 1d	1f#X 1bn 1dd	.	8bbn'\	.	mf
.	.	.	(4cc#X\	.	.
.	.	.	8dd\	.	.
.	.	.	8ff#X\L	.	.
.	.	.	8bn\	.	.
.	.	.	8dd\	.	.
.	.	.	8f#X\J)	.	.
=76	=76	=76	=76	=76	=76
(2Bn\	[1d [1f#X	pp	(8bn/L	.	p
.	.	.	8d/	.	.
.	.	.	8f#X/	.	.
.	.	.	8Bn/J)	.	.
2A\	.	.	(8b/L	.	.
.	.	.	8d/	.	.
.	.	.	8f#/	.	.
.	.	.	8A/J)	.	.
!	!	!	!LO:LB:g=original	!	!
=77	=77	=77	=77	=77	=77
2G#X\)	2d/] 2f#]	.	(8bn/L	.	.
.	.	.	8d/	.	.
!	!	!	!	!	!LO:HP:a:t=diminuendo
.	.	.	8f#X/	.	>
.	.	.	8G#X/J)	.	.
2r	2r	.	(8e#X/L	.	<
.	.	.	8f#/	.	.
.	.	.	8g#X/	.	.
.	.	.	8a#X/J)	.	[[
!LO:PB:g=original	!LO:PB:g=original	!	!	!	!
=78	=78	=78	=78	=78	=78
*^	*	*	*	*	*
*	*	*	*	*tuplet	*	*
!	!	!	!	!LO:TX:a:i:t=e ritardando	!	!
!	!	!	!	!LO:TUP:b	!	!
(>4c#X/	4ryy	[1d [1f#X	.	(12bn/L	.	p
.	.	.	.	12d/	.	.
.	.	.	.	12f#X/J	.	.
!LO:TX:a:i:t=diminuendo e ritard.	!	!	!	!	!	!
!	!LO:N:vis=2.	!	!	!LO:TUP:b	!	!
[2.Bn/	2Bn\	.	.	12e#X/L	.	.
.	.	.	.	12f#/	.	.
.	.	.	.	12Bn/J)	.	.
!	!	!	!	!LO:TUP:b	!	!
.	.	.	.	(12b/L	.	.
.	.	.	.	12d/	.	.
.	.	.	.	12f#/J	.	.
!	!	!	!	!LO:TUP:b	!	!
.	[4A\	.	.	12e#/L	.	.
.	.	.	.	12f#/	.	.
.	.	.	.	12A/J)	.	.
=79	=79	=79	=79	=79	=79	=79
*	*	*^	*	*	*	*
!	!	!	!	!	!LO:TUP:b	!	!
1B]	4A\]	2d/] 2f#]	2ryy	.	(12bn/L	.	.
.	.	.	.	.	12d/	.	.
.	.	.	.	.	12f#X/J	.	.
!	!	!	!	!	!LO:TUP:b	!	!
.	4G#X\	.	.	.	12e#X/L	.	.
.	.	.	.	.	12f#/	.	.
.	.	.	.	.	12G#X/J)	.	.
!	!	!	!	!	!LO:TUP:b	!	!
.	4F#X\	(>4a/	2d\	.	(12f#/L	.	.
.	.	.	.	.	12d/	.	.
.	.	.	.	.	12f#/J	.	.
!	!	!	!	!	!LO:TUP:b	!	!
.	4E\)	4g#/)	.	.	12d#X/L	.	.
.	.	.	.	.	12en/	.	.
.	.	.	.	.	12ee/J)	.	.
*	*	*v	*v	*	*	*	*
=80	=80	=80	=80	=80	=80	=80
*MM84	*MM84	*MM84	*	*MM84	*	*
!	!	!	!	!LO:TX:b:i:t=dolce	!	!
!	!	!LO:TX:a:t=D:rj	!	!LO:TX:a:t=D:rj	!	!
!	!	!LO:TX:a:B:t=Tempo I.	!	!LO:TX:a:t=Tempo I.	!	!
1E 1A 1c#X	4r	1e 1a 1cc#X	.	(8ee\L	.	.
.	.	.	.	8cc#X\	.	.
.	4AAA\ 4AA	.	.	8a\	.	.
.	.	.	.	8e\J	.	.
.	2rCC	.	.	8a\L	.	.
.	.	.	.	8cc#\	.	.
.	.	.	.	8.ee\	.	.
.	.	.	.	16ee\Jk)	.	.
!	!	!	!	!LO:LB:g=original	!	!
=81	=81	=81	=81	=81	=81	=81
1F#X 1A 1c#X	4r	1f#X 1a 1cc#X	.	4.ff#X\	.	.
.	4AAA\ 4AA	.	.	.	.	.
.	.	.	.	(8cc#X\L	.	<
.	2rCC	.	.	8gg#X\	.	.
.	.	.	.	8aa\J	.	[
.	.	.	.	8.cc#\L	.	.
.	.	.	.	16cc#'\Jk)	.	.
!LO:LB:g=original	!LO:LB:g=original	!LO:LB:g=original	!	!	!	!
=82	=82	=82	=82	=82	=82	=82
1F#X 1Bn 1d	4r	1f#X 1bn 1dd	.	4.ff#X\	.	.
.	4AAA\ 4AA	.	.	.	.	.
.	.	.	.	(8bn\L	.	<
.	2rCC	.	.	8cc#X\	.	.
.	.	.	.	8dd\J	.	[
.	.	.	.	8.f#X/L	.	.
.	.	.	.	16f#/Jk)	.	.
=83	=83	=83	=83	=83	=83	=83
2.E/ 2.Bn 2.d	4r	2.e/ 2.g# 2.dd	.	(8bn/L	.	.
.	.	.	.	8g#X/	.	.
.	4AAA\ 4AA	.	<	8e/)	.	.
.	.	.	.	8g#'/J	.	.
.	2rCC	.	.	(8g#/L	.	<
.	.	.	.	8a/	.	.
4E#X/ 4G#X 4c#X	.	4e#/ 4g# 4cc#X	[	8b/	.	.
.	.	.	.	8cc#X/J)	.	[[
=84	=84	=84	=84	=84	=84	=84
2.F#X/ 2.A 2.c#X	4r	2.f#X/ 2.a 2.cc#X	>	4.cc#X\	.	.
.	4AAA\ 4AA	.	.	.	.	.
.	.	.	.	(8f#X/L	.	.
.	2rCC	.	.	8g#X/	.	.
.	.	.	.	8a/J	.	.
4F#/ 4A	.	4c#X/ 4f#	]	8.c#X/L	.	.
.	.	.	.	16c#'/Jk)	.	.
*v	*v	*	*	*	*	*
=85	=85	=85	=85	=85	=85
!	!	!	!LO:TUP:b	!	!
1BBn 1F#X 1A	1d 1f#X	.	(12f#X/L	.	<
.	.	.	12d/	.	.
.	.	.	12Bn/J	.	.
.	.	.	12A#X/L	.	.
.	.	.	12B/	.	.
.	.	.	12d/J	.	.
!	!	!	!LO:TUP:b	!	!
.	.	.	12f#/L	.	.
.	.	.	12a#X/	.	.
.	.	.	12bn/J	.	.
!	!	!	!LO:TUP:b	!	!
.	.	.	12ff#X\L	.	[ >
.	.	.	12dd\	.	.
.	.	.	12b\J)	.	]]
!LO:LB:g=original	!LO:LB:g=original	!	!LO:LB:g=original	!	!
=86	=86	=86	=86	=86	=86
*	*^	*	*	*	*
!	!	!	!LO:HP:t=dimin.	!	!	!
(>2.E\	1G#X 1d 1g#X	(>2f#X/	>	(16g#X/LL	.	.
.	.	.	.	16e/	.	.
.	.	.	.	16f#X/	.	.
.	.	.	.	16g#/JJ	.	.
.	.	.	.	16an\LL	.	.
.	.	.	.	16bn\	.	.
.	.	.	.	16cc#X\	.	.
.	.	.	.	16dd\JJ	.	.
.	.	2e/)	.	16ee\LL	.	.
.	.	.	.	16ff#X\	.	.
.	.	.	.	16gg#X\	.	.
.	.	.	.	16aa\JJ	.	.
4EE/)	.	.	.	16bbn\LL	.	.
.	.	.	.	16ccc#X\	.	.
.	.	.	.	16ddd\	.	.
.	.	.	.	16ddd#X\JJ)	.	.
*	*v	*v	*	*	*	*
=87	=87	=87	=87	=87	=87
*^	*	*	*	*	*
1E 1A 1c#X 1e	4r	(8eee\L	p	4eeeT\	.	.
.	.	8ccc#X\	.	.	.	.
.	4AAA\ 4AA	8aa\	.	[2.aaaT\	.	.
.	.	8ee\J	.	.	.	.
.	2rCC	8aa\L	.	.	.	.
.	.	8ccc#\	.	.	.	.
.	.	8.eee\	.	.	.	.
.	.	16eee'\Jk)	.	.	.	.
=88	=88	=88	=88	=88	=88	=88
!	!	!	!	!LO:TX:t=P:problem:tr z bemolem	!	!
1F 1A 1cn 1f	4r	4.fff\	.	2.aaat\]	.	.
.	4AAA\ 4AA	.	.	.	.	.
.	.	(8ccc\L	<	.	.	.
.	2rCC	8eee\	.	.	.	.
.	.	8fff\J	.	.	.	.
.	.	8.ccc\L	[	4aaat\	.	.
.	.	16ccc'\Jk)	.	.	.	.
!LO:LB:g=original	!LO:LB:g=original	!LO:LB:g=original	!	!	!	!
=89	=89	=89	=89	=89	=89	=89
1F 1B-X 1d 1f	4r	4.ddd\	.	1bbb-T	.	.
.	4GGG\ 4GG	.	.	.	.	.
.	.	(8bbn\L	<	.	.	.
.	2rCC	8ccc#X\	.	.	.	.
.	.	8ddd\J	.	.	.	.
.	.	8.gg\L	[	.	.	.
.	.	16gg'\Jk)	.	.	.	.
=90	=90	=90	=90	=90	=90	=90
1E 1B- 1c 1g	4r	(8bb-\L	.	(2cccc\	.	.
.	.	8gg\	.	.	.	.
.	4AAA\ 4AA	8ee\	<	.	.	.
.	.	8cc\J	.	.	.	.
.	2rCC	8ee\L	.	2ccc\)	.	.
.	.	8ff\	.	.	.	.
.	.	8gg\	.	.	.	.
.	.	8ccc\J)	[[	.	.	.
*v	*v	*	*	*	*	*
=91	=91	=91	=91	=91	=91
*	*^	*	*	*	*
1FF 1C 1A	1f 1a 1cc	4r	p	(8ccc\L	.	.
.	.	.	.	8aa\	.	.
!	!LO:TX:b:i:t=espress.	!	!	!	!	!
.	.	(2c^>\	.	8ff\	.	.
.	.	.	.	8cc\J	.	.
.	.	.	.	8ff\L	.	.
.	.	.	.	8aa\	.	.
.	.	4f^>\)	.	8.ccc\	.	.
.	.	.	.	16ccc\Jk)	.	.
!	!	!	!	!LO:LB:g=original	!	!
=92	=92	=92	=92	=92	=92	=92
1FF 1D 1A	1f 1a 1dd	2d^\	.	4.ddd\	.	.
.	.	.	.	(8aa\L	.	<
.	.	(4d^>\	.	8eee\	.	.
.	.	.	.	8fff\J	.	[
.	.	4f^>\)	.	8.aa\L	.	.
.	.	.	.	16aa'\Jk)	.	.
=93	=93	=93	=93	=93	=93	=93
1FF 1D 1B-	1d 1f 1dd	(2.g^\	.	4.ddd\	.	.
.	.	.	.	(8gg\L	.	<
.	.	.	.	8aa\	.	.
.	.	.	.	8bb-\J	.	[
.	.	4a^\)	.	8.dd\L	.	.
.	.	.	.	16dd'\Jk)	.	.
!LO:LB:g=original	!LO:LB:g=original	!LO:LB:g=original	!	!	!	!
=94	=94	=94	=94	=94	=94	=94
*^	*	*	*	*	*	*
1FF 1G	(>2.C/	1e 1b-	(>4b-^>\	.	(8gg\L	.	.
.	.	.	.	.	8ee\	.	.
.	.	.	2c\	.	8cc\)	.	.
.	.	.	.	.	8ee'\J	.	.
.	.	.	.	.	(8ee\L	.	<
.	.	.	.	.	8ff\	.	.
.	4C#X/)	.	4c#X\)	.	8gg\	.	.
.	.	.	.	.	8aa\J)	.	[[
*v	*v	*	*	*	*	*	*
=95	=95	=95	=95	=95	=95	=95
1FF 1D 1A	1f 1a	(2.d\	.	4.aa\	.	.
.	.	.	.	(8dd\L	.	>
.	.	.	.	8ee\	.	.
.	.	.	.	8ff\J	.	.
.	.	8e^>\L	.	8.a/L	.	.
.	.	8f^>\J)	.	.	.	.
.	.	.	.	16a'>/Jk)	.	]]
=96	=96	=96	=96	=96	=96	=96
!	!	!	!	!LO:TUP:b	!	!
1FF 1D 1G	1B- 1d 1b-	(4g^>\	.	(12dd/L	.	<
.	.	.	.	12b-/	.	.
.	.	.	.	12g/J	.	.
!	!	!	!	!LO:TUP:b	!	!
.	.	4f^>\	.	12f#X/L	.	.
.	.	.	.	12g/	.	.
.	.	.	.	12b-/J	.	.
!	!	!	!	!LO:TUP:a	!	!
.	.	4e^>\	.	12dd\L	.	.
.	.	.	.	12ff#X\	.	.
.	.	.	.	12gg\J	.	.
!	!	!	!	!LO:TUP:a	!	!
.	.	4d^>\)	.	12ddd\L	.	[
.	.	.	.	12bb-\	.	.
.	.	.	.	12gg\J)	.	.
!	!	!	!	!LO:LB:g=original	!	!
=97	=97	=97	=97	=97	=97	=97
!	!	!	!LO:HP:t=dim.	!	!	!
1FF 1C 1G	1e 1b- 1cc	2.c^\	>	(16gg\LL	.	.
.	.	.	.	16cc\	.	.
.	.	.	.	16dd#X\	.	.
.	.	.	.	16ee\JJ	.	.
.	.	.	.	16ff\LL	.	.
!	!	!	!	!	!	!LO:HP:t=dim.
.	.	.	.	16ff#X\	.	<
.	.	.	.	16gg\	.	.
.	.	.	.	16gg#X\JJ	.	.
.	.	.	.	16aa\LL	.	.
.	.	.	.	16bb-\	.	.
.	.	.	.	16bbn\	.	.
.	.	.	.	16ccc\JJ	.	.
.	.	4c^\	.	16ccc#X\LL	.	.
.	.	.	.	16ddd\	.	.
.	.	.	.	16ddd#X\	.	.
.	.	.	.	16eee\JJ)	.	.
!LO:PB:g=original	!LO:PB:g=original	!LO:PB:g=original	!	!	!	!
=98	=98	=98	=98	=98	=98	=98
*^	*	*	*	*	*	*
4A^/	[1FF [1C	4f/ 4a 4cc	2.c\	pp	(8fff\L	.	pp
.	.	.	.	.	8ccc\	.	.
4rA	.	4r	.	.	8aa\	.	.
.	.	.	.	.	8ff\J)	.	.
2rA	.	4r	.	.	(8ff\L	.	.
.	.	.	.	.	8aa\	.	.
.	.	(4g^/	4B-\ 4d 4g	.	8bb-\	.	.
.	.	.	.	.	8ddd\J)	.	.
*v	*v	*	*	*	*	*	*
=99	=99	=99	=99	=99	=99	=99
!	!	!	!	!LO:TUP:a	!	!
1FF] 1C]	2.f^/)	2.A\ 2.c	.	(12fff\L	.	.
.	.	.	.	12ddd\	.	.
.	.	.	.	12fff\J	.	.
!	!	!	!	!LO:TUP:a	!	!
.	.	.	.	12ddd\L	.	.
.	.	.	.	12ccc\	.	.
.	.	.	.	12ff\J)	.	.
!	!	!	!	!LO:TUP:a	!	!
.	.	.	.	(10ff\L	.	.
.	.	.	.	10aa\	.	.
.	.	.	.	10gg\	.	.
.	(4c^/	4G\ 4B-	<	.	.	.
.	.	.	.	10bb-\	.	.
.	.	.	.	10ddd\J)	.	.
=100	=100	=100	=100	=100	=100	=100
*	*	*	*	*Xtuplet	*	*
[1FF [1C	4f^/	4A\ 4c	.	(12fff\L	.	<
.	.	.	.	12ccc\	.	.
.	.	.	.	12aa\J	.	.
.	4g^/	4B-\ 4d	[	12bb-\L	.	.
.	.	.	.	12ddd\	.	.
.	.	.	.	12fff\J)	.	.
.	4f^/	4A\ 4c	>	(12fff\L	.	[ >
.	.	.	.	12ccc\	.	.
.	.	.	.	12aa\J	.	.
.	4c^/)	4G\ 4B-	.	12bb-\L	.	.
.	.	.	.	12ddd\	.	.
.	.	.	.	12fff\J)	.	]]
*	*v	*v	*	*	*	*
!	!	!	!LO:LB:g=original	!	!
=101	=101	=101	=101	=101	=101
1FF_ 1C_	[1A^> [1c [1f	]	(12aaa\L	.	.
.	.	.	12fff\	.	.
.	.	.	12ccc\J	.	.
.	.	.	12fff\L	.	.
.	.	.	12ccc\	.	.
.	.	.	12aa\J	.	.
.	.	.	16ccc\LL	.	.
.	.	.	16aa\	.	.
.	.	.	16ff\	.	.
.	.	.	16aa\JJ	.	.
.	.	.	16ff\LL	.	.
.	.	.	16cc\	.	.
.	.	.	16dd\	.	.
.	.	.	16ee\JJ)	.	.
!LO:LB:g=original	!LO:LB:g=original	!	!	!	!
=102	=102	=102	=102	=102	=102
2.FF/] 2.C]	2.A/] 2.c] 2.f]	.	(16ff\LL	.	.
.	.	.	16ccc\	.	.
.	.	.	16aa\	.	.
.	.	.	16ff\JJ	.	.
.	.	.	16cc/LL	.	.
.	.	.	16a/	.	.
.	.	.	16f/	.	.
.	.	.	16c/JJ	.	.
.	.	.	16A/LL	.	.
.	.	.	16c/	.	.
.	.	.	16f/	.	.
.	.	.	16a/JJ	.	.
4r	4r	.	16cc\LL	.	.
.	.	.	16ff\	.	.
.	.	.	16aa\JJ)	.	.
.	.	.	16r	.	.
=103	=103	=103	=103	=103	=103
*MM112	*MM112	*	*MM112	*	*
!	!LO:TX:a:t=E:rj	!	!LO:TX:a:t=Con fuoco e ben marcato.	!	!
!	!LO:TX:a:B:t=Con fuoco e ben marcato.	!	!LO:TX:a:t=E:rj	!	!
2r	2r	.	(8.c#X'v/L 8.e 8.a	.	f
.	.	.	16d'/Jk) 16f 16a	.	.
.	.	.	2c#u/ 2e 2a	.	.
4r	4r	.	.	.	.
(4G\	(>4A/ 4c	p	12e'/L 12cc#X	.	.
.	.	.	12A'/	.	.
.	.	.	12e'/J 12cc#	.	.
=104	=104	=104	=104	=104	=104
4F\	4A/ 4d	<	12f'^/L 12dd	.	.
.	.	.	12A'/	.	.
.	.	.	12f'/J 12dd	.	.
4D\	4A/ 4f	.	12a'^/L 12ff	.	.
.	.	.	12A'/	.	.
.	.	.	12a'/J 12ff	.	.
4E\	4A/ 4e	[ >	12g'^/L 12ee	.	.
.	.	.	12A'/	.	.
.	.	.	12g'/J 12ee	.	.
4F\)	4A/) 4d	]]	12f'^/L 12dd	.	.
.	.	.	12A'/	.	.
.	.	.	12f'/J 12dd	.	.
!	!	!	!LO:LB:g=original	!	!
=105	=105	=105	=105	=105	=105
4A\	4A/ 4c#X	.	(8.a'\L 8.cc#X 8.ee	.	f
.	.	.	16e'\Jk) 16bn 16ee	.	.
4r	4r	.	2a\ 2cc# 2ee	.	.
4r	4r	.	.	.	.
[4A\	(4e/ 4g 4cc#X	.	12ee'\L 12ccc#X	.	.
.	.	.	12a'\	.	.
.	.	.	12ee'\J 12ccc#	.	.
!LO:LB:g=original	!LO:LB:g=original	!	!	!	!
=106	=106	=106	=106	=106	=106
2.A\]	4f/ 4a 4dd	<	12ff'\L 12ddd	.	<
.	.	.	12a'\	.	.
.	.	.	12ff'\J 12ddd	.	.
.	4a\ 4dd 4ff	.	12aa'\L 12fff	.	.
.	.	.	12a'\	.	.
.	.	.	12aa'\J 12fff	.	.
.	4g\ 4b- 4ee	[ >	12gg'\L 12eee	.	[ >
.	.	.	12a'\	.	.
.	.	.	12gg'\J 12eee	.	.
4A\	4e/) 4a 4cc#X	]]	12ee'\L 12ccc#X	.	.
.	.	.	12a'\	.	.
.	.	.	12ee'\J 12ccc#	.	]]
=107	=107	=107	=107	=107	=107
*	*^	*	*	*	*
2.A-X\ 2.B-	(8ff/L	2.f\ 2.b-	mp	8.a-Xu\L 8.ff 8.ddd	.	f
.	8dd/	.	.	.	.	.
.	.	.	.	16A-Xv\Jk 16f 16dd	.	.
.	8b-/	.	.	2A-u/ 2f 2dd	.	.
.	8f/J	.	.	.	.	.
.	8b-/L	.	.	.	.	.
.	8dd/)	.	.	.	.	.
(8.A-'\L 8.B-	(8.ff'/	8.f\L 8.b-	.	12ff'\L 12ddd	.	.
.	.	.	.	12a-'\	.	.
.	.	.	.	12ff'\J 12ddd	.	.
16A-'\Jk) 16B-	16ff'/Jk)	16f\Jk 16b-	.	.	.	.
=108	=108	=108	=108	=108	=108	=108
2.G\ 2.B-	(4.ee-X/	2.e-X\ 2.b-	.	12ee-X'\L 12eee-X	.	.
.	.	.	.	12g'\	.	.
.	.	.	.	12ee-'\J 12eee-	.	.
.	.	.	.	12ee-'\L 12bb-	.	.
.	.	.	.	12g'\	.	.
.	8b-/L	.	.	.	.	.
.	.	.	.	12ee-'\J 12bb-	.	.
.	8dd/	.	.	12ee-'\L 12eee-	.	.
.	.	.	.	12g'\	.	.
.	8ee-/J)	.	.	.	.	.
.	.	.	.	12ee-'\J 12eee-	.	.
(8.G'\L 8.An	(8.cc#X'/L	8.en\L 8.a	.	12een'\L 12ccc#X	.	.
.	.	.	.	12g'\	.	.
.	.	.	.	12ee'\J 12ccc#	.	.
16G'\Jk) 16A	16cc#'/Jk)	16e\Jk 16a	.	.	.	.
=109	=109	=109	=109	=109	=109	=109
2.F#X\ 2.A	(8dd/L	2.d\ 2.a	.	8.f#Xu\L 8.dd 8.ddd	.	f
.	8a/	.	.	.	.	.
.	.	.	.	16f#v\Jk 16dd 16aa	.	.
.	8f#X/	.	.	2f#u\ 2dd 2aa	.	.
.	8d/J	.	.	.	.	.
.	8f#/L	.	.	.	.	.
.	8a/)	.	.	.	.	.
(8.Fn'\L 8.Bn	(8.dd'/	8.d\L 8.g#	.	12dd'\L 12bbn	.	.
.	.	.	.	12fn'\	.	.
.	.	.	.	12dd'\J 12bb	.	.
16F'\Jk) 16B	16dd'/Jk)	16d\Jk 16g#	.	.	.	.
!LO:LB:g=original	!LO:LB:g=original	!LO:LB:g=original	!	!LO:LB:g=original	!	!
=110	=110	=110	=110	=110	=110	=110
2.G\ 2.B-	(4.cc/	2.c\ 2.g	.	12cc\L 12ccc	.	.
.	.	.	.	12e\	.	.
.	.	.	.	12cc\J 12ccc	.	.
.	.	.	.	12cc\L 12gg	.	.
.	.	.	.	12e\	.	.
.	8g/L	.	.	.	.	.
.	.	.	.	12cc\J 12gg	.	.
.	8bn/	.	.	12cc\L 12ccc	.	.
.	.	.	.	12e\	.	.
.	8cc/J)	.	.	.	.	.
.	.	.	.	12cc\J 12ccc	.	.
(8.E'\L 8.F#X	(8.a#'/L	8.c#X\L 8.f#X	.	12cc#X\L 12aa#X	.	.
.	.	.	.	12e\	.	.
.	.	.	.	12cc#\J 12aa#	.	.
16E'\Jk) 16F#	16a#'/Jk)	16c#\Jk 16f#	.	.	.	.
=111	=111	=111	=111	=111	=111	=111
8r	8r	8ryy	.	8.d#X\L 8.bn 8.bbn	.	f
4.D#X\ 4.F#X	(8f#X/L	4.Bn\	.	.	.	.
.	.	.	.	16d#\Jk 16b 16ff#X	.	.
.	8a#/	.	.	4d#\ 4b 4ff#	.	.
.	8bn/J)	.	.	.	.	.
!	!	!	!	!	!	!LO:DY:rj
8r	8r	8ryy	<	8.dn\L 8.b 8.bb	.	f <
4.Dn\ 4.E	(8e/L	4.B\	.	.	.	.
.	.	.	.	16d\Jk 16b 16gg#X	.	.
.	8g#/	.	.	4d\ 4b 4gg#	.	.
.	8b/J)	.	.	.	.	.
=112	=112	=112	=112	=112	=112	=112
8r	8r	8ryy	.	8.c#X/L 8.a 8.aa	.	f
4.C#X\ 4.E	(8e/L	4.A\	.	.	.	.
.	.	.	.	16c#/Jk 16a 16ee	.	.
.	8g#/	.	.	4c#/ 4a 4ee	.	.
.	8a/J)	.	.	.	.	.
8r	8r	8ryy	.	8.cn/L 8.a 8.aa	.	f
4.Cn/	(8e/L	4.A\ 4.d	.	.	.	.
.	.	.	.	16c/Jk 16a 16ff#X	.	.
.	8f#X/	.	.	4c/ 4a 4ff#	.	.
.	8a/J)	.	.	.	.	.
*	*v	*v	*	*	*	*
!LO:LB:g=original	!LO:LB:g=original	!	!	!	!
=113	=113	=113	=113	=113	=113
!	!	!	!	!	!LO:DY:rj
(8.BBn'/L	(8.G'/L 8.d 8.g	f	(16G/LL	.	ff
.	.	.	16Bn/	.	.
.	.	.	16d/	.	.
*	*	*	*	*below	*
16BB'/Jk)	16G'/Jk) 16d	.	16g/JJ	1	.
4BB/	4G/ 4d	.	16dd/LL	4	.
.	.	.	16bn/	5	.
.	.	.	16g/	.	.
.	.	.	16d/JJ)	.	.
2r	2r	.	(16g\LL	.	.
.	.	.	16b\	.	.
.	.	.	16dd\	.	.
.	.	.	16gg\JJ	1	.
.	.	.	16ddd\LL	4	.
.	.	.	16bbn\	3	.
.	.	.	16gg\	.	.
.	.	.	16dd\JJ)	.	.
!	!	!	!LO:LB:g=original	!	!
=114	=114	=114	=114	=114	=114
1r	1r	.	(16gg\LL	.	.
.	.	.	16bbn\	.	.
.	.	.	16ddd\	.	.
.	.	.	16ggg\JJ	.	.
*	*	*	*8va	*	*
.	.	.	16dddd\LL	1	.
.	.	.	16bbb\	4	.
.	.	.	16ggg\	3	.
.	.	.	16ddd\JJ)	.	.
.	.	.	(16ggg\LL	.	.
.	.	.	16bbb\	1	.
.	.	.	16dddd\	3	.
.	.	.	16gggg\JJ	4	.
.	.	.	8bbbb-\)	0 4	.
*	*	*	*X8va	*	*
.	.	.	8r	.	.
=115	=115	=115	=115	=115	=115
(8.BBn'/L	(8.G#X'/L 8.d 8.g#X	.	(16G#X/LL	.	.
.	.	.	16Bn/	.	.
.	.	.	16d/	.	.
16BB'/Jk)	16G#'/Jk) 16d	.	16g#X/JJ	1	.
4BB/	4G#/ 4d	.	16dd/LL	4	.
.	.	.	16bn/	3	.
.	.	.	16g#/	.	.
.	.	.	16d/JJ)	.	.
2r	2r	.	(16g#\LL	.	.
.	.	.	16b\	3	.
.	.	.	16dd\	.	.
.	.	.	16gg#X\JJ	.	.
.	.	.	16ddd\LL	4	.
.	.	.	16bbn\	.	.
.	.	.	16gg#\	.	.
.	.	.	16dd\JJ)	.	.
=116	=116	=116	=116	=116	=116
1r	1r	.	(16gg#X\LL	.	.
.	.	.	16bbn\	.	.
.	.	.	16ddd\	.	.
!	!	!	!LO:SIC:o=16ggg\JJ	!	!
.	.	.	16ggg#\JJ	.	.
*	*	*	*8va	*	*
.	.	.	16dddd\LL	1	.
.	.	.	16bbb\	4	.
.	.	.	16ggg#\	3	.
.	.	.	16ddd\JJ)	.	.
.	.	.	(16ggg#\LL	.	.
.	.	.	16bbb\	1	.
.	.	.	16dddd\	3	.
!	!	!	!LO:SIC:o=16gggg\JJ	!	!
.	.	.	16ggg#\JJ	4	.
!	!	!	!LO:SIC:o=8bbbb-\)	!	!
.	.	.	8bbbbn\)	0 4	.
*	*	*	*X8va	*	*
.	.	.	8r	.	.
!LO:PB:g=original	!LO:PB:g=original	!	!	!	!
=117	=117	=117	=117	=117	=117
*MM132	*MM132	*	*	*	*
*tremolo	*	*	*	*	*
!	!	!	!LO:TX:a:B:t=Più mosso e\n con fuoco.	!	!
!	!LO:TX:a:B:t=Più mosso e con fuoco.	!	!LO:TX:a:t=tutti	!	!
!	!	!	!LO:TX:a:t=14	!	!
(32AA/LLL	(8.d'/L 8.f#X 8.a	p	1r	.	.
32AAA/	.	.	.	.	.
32AA/	.	.	.	.	.
32AAA/	.	.	.	.	.
32AA/	.	.	.	.	.
32AAA/	.	.	.	.	.
32AA/	16A'/Jk) 16d 16f#	.	.	.	.
32AAA/	.	.	.	.	.
32AA/	4A^>/ 4d 4f#	.	.	.	.
32AAA/	.	.	.	.	.
32AA/	.	.	.	.	.
32AAA/	.	.	.	.	.
32AA/	.	.	.	.	.
32AAA/	.	.	.	.	.
32AA/	.	.	.	.	.
32AAA/JJJ)	.	.	.	.	.
(32AA/LLL	8Bn/ 8d 8g	<	.	.	.
32AAA/	.	.	.	.	.
32AA/	.	.	.	.	.
32AAA/	.	.	.	.	.
32AA/	4d^>/ 4g 4a	.	.	.	.
32AAA/	.	.	.	.	.
32AA/	.	.	.	.	.
32AAA/	.	.	.	.	.
32AA/	.	.	.	.	.
32AAA/	.	.	.	.	.
32AA/	.	.	.	.	.
32AAA/	.	.	.	.	.
32AA/	8g/ 8bn	.	.	.	.
32AAA/	.	.	.	.	.
32AA/	.	.	.	.	.
32AAA/JJJ)	.	.	.	.	.
=118	=118	=118	=118	=118	=118
(32AA/LLL	(8.f#X'/L 8.a 8.dd	mf	1r	.	.
32AAA/	.	.	.	.	.
32AA/	.	.	.	.	.
32AAA/	.	.	.	.	.
32AA/	.	.	.	.	.
32AAA/	.	.	.	.	.
32AA/	16d'/Jk) 16f# 16a	.	.	.	.
32AAA/	.	.	.	.	.
32AA/	4d^>/ 4f# 4a	.	.	.	.
32AAA/	.	.	.	.	.
32AA/	.	.	.	.	.
32AAA/	.	.	.	.	.
32AA/	.	.	.	.	.
32AAA/	.	.	.	.	.
32AA/	.	.	.	.	.
32AAA/JJJ)	.	.	.	.	.
(32AA/LLL	8d/ 8a 8bn	<	.	.	.
32AAA/	.	.	.	.	.
32AA/	.	.	.	.	.
32AAA/	.	.	.	.	.
32AA/	4g^\ 4b 4dd	.	.	.	.
32AAA/	.	.	.	.	.
32AA/	.	.	.	.	.
32AAA/	.	.	.	.	.
32AA/	.	.	.	.	.
32AAA/	.	.	.	.	.
32AA/	.	.	.	.	.
32AAA/	.	.	.	.	.
32AA/	8b\ 8dd 8gg	.	.	.	.
32AAA/	.	.	.	.	.
32AA/	.	.	.	.	.
32AAA/JJJ)	.	.	.	.	.
*Xtremolo	*	*	*	*	*
=119	=119	=119	=119	=119	=119
4AAA/ 4AA	(8.dd'\L 8.ff#X	f	1r	.	.
.	16a'\Jk) 16dd	.	.	.	.
4c\ 4cc	4a\ 4dd	.	.	.	.
4Bn\ 4bn	(8.dd'\L 8.gg	.	.	.	.
.	16g'\Jk) 16ee	.	.	.	.
4B-X\ 4b-X	4g\ 4ee	.	.	.	.
=120	=120	=120	=120	=120	=120
4A\ 4a	(8.dd'\L 8.ff#X	.	1r	.	.
.	16a'\Jk) 16dd	.	.	.	.
4c\ 4cc	4a\ 4dd	.	.	.	.
4Bn\ 4bn	(8.dd'\L 8.gg	.	.	.	.
.	16g'\Jk) 16ee	.	.	.	.
4B-X\ 4b-X	4g\ 4ee	.	.	.	.
!LO:LB:g=original	!LO:LB:g=original	!	!	!	!
=121	=121	=121	=121	=121	=121
2F#X\ 2A 2d	(8.dd'\L 8.aa	.	1r	.	.
.	16a'\Jk) 16dd	<	.	.	.
.	4a\ 4dd	.	.	.	.
2Fn:\ 2Bn: 2d: 2g#X:	8bn\ 8dd 8ffn 8bbn	.	.	.	.
.	(4cc#X^\ 4ccc#X	.	.	.	.
.	8dd\) 8ddd	.	.	.	.
=122	=122	=122	=122	=122	=122
2F#X\ 2A 2d	(8.dd'\L 8.aa	.	1r	.	.
.	16a'\Jk) 16dd	.	.	.	.
.	4a\ 4dd	.	.	.	.
2Fn:\ 2Bn: 2d: 2g#X:	8bn\ 8dd 8ffn 8bbn	.	.	.	.
.	(4cc#X^\ 4ccc#X	.	.	.	.
.	8dd\) 8ddd	.	.	.	.
=123	=123	=123	=123	=123	=123
*	*8va	*	*	*	*
!	!	!	!LO:DY:rj	!	!
4A\ 4d 4f#X 4a	(8.aa'\L 8.ddd 8.fff#X 8.aaa	ff	1r	.	.
.	16ff#X'\Jk) 16ddd 16fff#	.	.	.	.
4AA\ 4A	4ff#\ 4ddd 4fff#	.	.	.	.
8G\ 8B- 8c#X 8g	8gg\ 8bb- 8ccc#X 8ggg	.	.	.	.
4G^\ 4B- 4c# 4f#X	(4ff#^\ 4bb- 4ccc# 4fff#	.	.	.	.
8G\ 8B- 8c# 8e	8ee/) 8bb- 8ccc# 8eee	.	.	.	.
=124	=124	=124	=124	=124	=124
4F#X\ 4d 4a	(8.aa'\L 8.ddd 8.fff#X 8.aaa	.	1r	.	.
.	16ff#X'\Jk) 16ddd 16fff#	.	.	.	.
4AA\ 4A	4ff#\ 4ddd 4fff#	.	.	.	.
8G\ 8B- 8c#X 8g	8gg\ 8bb- 8ccc#X 8ggg	.	.	.	.
4G^\ 4B- 4c# 4f#X	(4ff#^\ 4bb- 4ccc# 4fff#	.	.	.	.
8G\ 8B- 8c# 8e	8ee/) 8bb- 8ccc# 8eee	.	.	.	.
=125	=125	=125	=125	=125	=125
!	!	!LO:DY:rj	!	!	!
2F#X:\ 2d: 2a:	(8.ddd'\L 8.aaa 8.dddd	sf	1r	.	.
.	16dd'\Jk) 16aa 16ddd	.	.	.	.
.	4dd/ 4aa 4ddd	.	.	.	.
*	*X8va	*	*	*	*
2Fn:\ 2B-: 2d: 2a-X:	(8.dd'\L 8.aa-X 8.bb- 8.ddd	.	.	.	.
.	16b-'\Jk) 16bb-	.	.	.	.
.	4b-\ 4bb-	.	.	.	.
!LO:LB:g=original	!LO:LB:g=original	!	!	!	!
=126	=126	=126	=126	=126	=126
2G:\ 2B-: 2e-X: 2g:	(8.ee-X'\L 8.bb- 8.eee-X	.	1r	.	.
!	!	!LO:HP:t=dim.	!	!	!
.	16b-'\Jk) 16bb-	>	.	.	.
.	4b-\ 4bb-	.	.	.	.
2AA:\ 2G: 2c#X:	(8.b-'\L 8.een 8.bb-	.	.	.	.
.	16a'\Jk) 16aa	.	.	.	.
.	4a\ 4aa	.	.	.	.
=127	=127	=127	=127	=127	=127
2DD:/ 2AA: 2F:	(8.d'/L 8.f 8.a	mf	1r	.	.
.	16A'/Jk) 16d 16f	.	.	.	.
.	4A/ 4d 4f	.	.	.	.
2DD/ 2BB- 2D	8G/ 8B- 8d	.	.	.	.
.	4B-^>/ 4d 4e	.	.	.	.
.	8d/ 8e 8g	.	.	.	.
=128	=128	=128	=128	=128	=128
2DD/ 2AA 2F	(8.d'/L 8.f 8.a	.	1r	.	.
.	16A'/Jk) 16d 16f	.	.	.	.
.	4A/ 4d 4f	.	.	.	.
2DD/ 2BB- 2D	8B-/ 8d 8g	<	.	.	.
.	4d^>/ 4f 4g	.	.	.	.
.	8g/ 8b-	.	.	.	.
=129	=129	=129	=129	=129	=129
2DD/ 2AA 2D	(8.f'/L 8.a 8.dd	f	1r	.	.
.	16d'/Jk) 16f 16a	.	.	.	.
.	4d/ 4f 4a	.	.	.	.
2BBB-/ 2BB-	(8.d'/L 8.f 8.b-	.	.	.	.
.	16f'/Jk) 16b- 16dd	.	.	.	.
.	4f/ 4b- 4dd	.	.	.	.
=130	=130	=130	=130	=130	=130
2AAA/ 2AA	(8.a'\L 8.dd 8.ff	<	1r	.	.
.	16f'\Jk) 16a 16dd	.	.	.	.
.	4f/ 4a 4dd	.	.	.	.
(8.GGG#X'/L 8.GG#X	(8.f'\L 8.b- 8.dd	.	.	.	.
16GGG#'/Jk) 16GG#	16b-'\Jk) 16dd 16ff 16bb-	.	.	.	.
4GGG#/ 4GG#	4b-\ 4dd 4ff 4bb-	.	.	.	.
!	!	!	!LO:PB:g=original	!	!
=131	=131	=131	=131	=131	=131
*	*	*	*cue	*	*
!	!	!	!LO:TX:t=P:problem:Cadenza zapisana mniejszym drukiem	!	!
2AAAn;</ 2AAn	2a;\ 2dd 2ff 2aa	ff	8r	.	.
!	!	!	!LO:TX:a:i:t=Cadenza	!	!
.	.	.	16r	.	.
!	!	!	!LO:TX:b:i:t=energico	!	!
.	.	.	16B-'/ 16e 16dd	.	f
.	.	.	4B-'^>/ 4e 4dd	.	.
2r	2r	.	(8.A'/L 8.e 8.cc#X	.	.
.	.	.	16d'/Jk) 16b- 16ff	.	.
.	.	.	4d^>/ 4b- 4ff	.	.
!LO:PB:g=original	!LO:PB:g=original	!	!	!	!
=132	=132	=132	=132	=132	=132
1ryy	1ryy	.	(8.c#X'\L 8.e 8.a 8.ee	.	.
.	.	.	16f'\Jk) 16dd 16aa	.	.
.	.	.	4f^\ 4dd 4aa	.	.
.	.	.	(8.e'\L 8.dd 8.gg	.	.
.	.	.	16b-'\Jk) 16ee 16ddd	.	.
.	.	.	4b-^\ 4ee 4ddd	.	.
=133	=133	=133	=133	=133	=133
*	*	*	*Xtuplet	*	*
1ryy	1ryy	.	12a\L 12ee 12ccc#X	.	.
.	.	.	12cc#X\ 12eee	.	<
.	.	.	12cc#\J 12eee	.	.
.	.	.	(12cc#\L 12eee	.	.
.	.	.	12ee\) 12ggg	.	.
.	.	.	12ee\J 12ggg	.	.
.	.	.	(12ee\L 12ggg	.	.
.	.	.	12gg\) 12bbb-	.	.
.	.	.	12gg\J 12bbb-	.	.
.	.	.	(12gg\L 12bbb-	.	.
.	.	.	12bb-\) 12dddd	.	.
.	.	.	12bb-\J 12dddd	.	[[
=134	=134	=134	=134	=134	=134
1ryy	1ryy	.	8bb-\ 8dddd	.	.
.	.	.	4aa^\ 4cccc#X	.	.
.	.	.	8gg\ 8bb-	.	.
.	.	.	8ff^\L 8aa	.	.
.	.	.	8ee^\ 8gg	.	.
.	.	.	8dd^\ 8ff	.	.
.	.	.	8a^\J 8ee	.	.
=135	=135	=135	=135	=135	=135
1ryy	1ryy	.	(8.g#X'u/L 8.dd 8.ff	.	.
.	.	.	16G#X'/Jk) 16f 16dd	.	.
.	.	.	4G#^>/ 4f 4dd	.	.
.	.	.	8G#/ 8f 8cc#X	.	.
.	.	.	4G#^>/ 4f 4dd	.	.
.	.	.	8g#\ 8dd 8ff	.	.
=136	=136	=136	=136	=136	=136
1ryy	1ryy	.	(8.a'/L 8.dd 8.ff	.	.
.	.	.	16A'/Jk) 16f 16dd	.	.
.	.	.	4A/ 4f 4dd	.	.
.	.	.	8A/ 8f 8cc#X	.	.
.	.	.	4A^>/ 4f 4dd	.	.
.	.	.	8a\ 8dd 8ff	.	.
!	!	!	!LO:LB:g=original	!	!
=137	=137	=137	=137	=137	=137
1ryy	1ryy	.	(8.b-'/L 8.dd 8.ff	.	.
.	.	.	16B-'/Jk) 16f 16dd	.	.
.	.	.	4B-/ 4d 4f	.	.
.	.	.	(8.B-'/L 8.g 8.dd	.	.
.	.	.	16b-'/Jk) 16dd 16gg	.	.
.	.	.	4b-\ 4dd 4gg	.	.
=138	=138	=138	=138	=138	=138
1ryy	1ryy	.	(8.b-'/L 8.dd 8.gg#X	.	.
.	.	.	16B-'/Jk) 16g#X 16dd	.	.
.	.	.	4B-/ 4g# 4dd	.	.
.	.	.	(8.B-'/L 8.g# 8.dd	.	.
.	.	.	16b-'/Jk) 16dd 16gg#	.	.
.	.	.	4b-\ 4dd 4gg#	.	.
=139	=139	=139	=139	=139	=139
1ryy	1ryy	.	(8.A'\L 8.f 8.dd 8.aa	.	.
.	.	.	16aa'\Jk) 16fff	.	.
.	.	.	8ff\ 8ddd	.	.
.	.	.	16r	.	.
.	.	.	16A'/ 16a	.	.
.	.	.	4d'/ 4dd	.	.
.	.	.	4a'\ 4aa	.	.
=140	=140	=140	=140	=140	=140
1ryy	1ryy	.	(8.A'\L 8.f#X 8.dd#X 8.ccc	.	.
!	!	!	!LO:TX:b:i:t=allargando e	!	!
.	.	.	16aa'\Jk) 16fff#X	.	.
.	.	.	8ff#X\ 8ddd#X	.	.
.	.	.	16r	.	.
!	!	!	!LO:N:vis=4	!	!
.	.	.	16A'/ 16a	.	.
.	.	.	4d#X'/ 4dd#X	.	.
.	.	.	4a'\ 4aa	.	.
=141	=141	=141	=141	=141	=141
1ryy	1ryy	.	(8.A'\L 8.g 8.ee 8.ccc#X	.	.
.	.	.	16ccc#\Jk) 16aaa	.	.
.	.	.	8aa\ 8eee	.	<
.	.	.	16r	.	.
.	.	.	16A/ 16a	.	.
.	.	.	4e'/ 4ee	.	.
.	.	.	4a'\ 4aa	.	.
=142	=142	=142	=142	=142	=142
1ryy	1ryy	.	(8.a'\L 8.ee 8.ccc#X	.	.
.	.	.	16A'\Jk) 16a	.	.
.	.	.	(8e'\L 8ee	.	.
.	.	.	8a'\J) 8aa	.	.
.	.	.	(8.ee'\L 8.eee	.	.
.	.	.	16a'\Jk) 16aa	.	.
.	.	.	(8ee'\L 8eee	.	.
.	.	.	8aa'\J) 8aaa	.	.
!	!	!	!LO:LB:g=original	!	!
=143	=143	=143	=143	=143	=143
!	!	!	!LO:TX:a:i:t=a tempo	!	!
1ryy	1ryy	.	2du/ 2f 2dd	.	ff
.	.	.	4du/ 4f 4a	.	.
.	.	.	4du/ 4f 4dd	.	.
=144	=144	=144	=144	=144	=144
1ryy	1ryy	.	4Au/ 4e 4a 4ee	.	.
.	.	.	2du/ 2a 2ff	.	.
.	.	.	4Gu/ 4f 4bn 4aa	.	.
=145	=145	=145	=145	=145	=145
1ryy	1ryy	.	(8c/L 8e 8cc 8gg	.	mf
.	.	.	8g/ 8ee	.	.
.	.	.	8e/ 8cc	.	.
.	.	.	8c/J) 8g	.	.
.	.	.	(8e\L 8cc	.	<
.	.	.	8g\ 8ee	.	.
.	.	.	8.cc\ 8.gg	.	.
.	.	.	16cc'\Jk) 16gg	.	[[
=146	=146	=146	=146	=146	=146
1ryy	1ryy	.	(8ee\L 8ccc	.	>
.	.	.	8cc\ 8gg	.	.
.	.	.	8g\ 8ee	.	.
.	.	.	8e\J) 8cc	.	]
.	.	.	(8g\L 8ee	.	]<
.	.	.	8cc\ 8gg	.	.
.	.	.	8.ee\ 8.ccc	.	.
.	.	.	16ee\Jk) 16ccc	.	[[
=147	=147	=147	=147	=147	=147
*	*	*	*^	*	*
1ryy	1ryy	.	(12gg\L 12eee	4ryy	.	>
.	.	.	12ccc\	.	.	.
.	.	.	12gg\J	.	.	.
.	.	.	12ee/L	6ryy	.	]
.	.	.	12cc/)	.	.	.
*	*	*	*	*cue	*	*
.	.	.	12gg/J	12g^\	.	.
.	.	.	(12ccc/L	4cc^\	.	.
.	.	.	12bbn/	.	.	.
.	.	.	12ccc/J)	.	.	.
.	.	.	(12eee/L	4ee^\	.	.
.	.	.	12ddd#X/	.	.	.
.	.	.	12eee/J)	.	.	.
=148	=148	=148	=148	=148	=148	=148
1ryy	1ryy	.	4ggg/	4gg^\	.	sf
.	.	.	8r	4ryy	.	.
.	.	.	8G^>/	.	.	.
.	.	.	4c^>/	2ryy	.	.
.	.	.	4g^>/	.	.	.
*	*	*	*v	*v	*	*
=149	=149	=149	=149	=149	=149
1ryy	1ryy	.	4cu\ 4g 4ee 4ccc	.	ff
.	.	.	2eu\ 2cc 2gg	.	.
.	.	.	4gu\ 4cc 4ee	.	.
=150	=150	=150	=150	=150	=150
1ryy	1ryy	.	2A/ 2e 2cc	.	.
.	.	.	4G/ 4bn 4dd	.	.
.	.	.	4c/ 4g 4ee	.	.
!	!	!	!LO:LB:g=original	!	!
=151	=151	=151	=151	=151	=151
*	*	*	*^	*	*
1ryy	1ryy	.	(8d/L 8dd	8G\	.	.
.	.	.	8d/ 8bn	8ryy	.	>
.	.	.	8Bn/ 8g	4ryy	.	.
.	.	.	8G/J) 8d	.	.	]
.	.	.	(8B/L 8g	2ryy	.	<
.	.	.	8d/ 8b	.	.	.
.	.	.	8.g/ 8.dd	.	.	.
.	.	.	16g/Jk) 16dd	.	.	[[
*	*	*	*v	*v	*	*
=152	=152	=152	=152	=152	=152
1ryy	1ryy	.	(8bn/L 8gg	.	>
.	.	.	8g/ 8dd	.	.
.	.	.	8d/ 8b	.	.
.	.	.	8Bn/J) 8g	.	]
.	.	.	(8d/L 8b	.	<
.	.	.	8g/ 8dd	.	.
.	.	.	8.b/ 8.gg	.	.
.	.	.	16b/Jk) 16gg	.	[[
=153	=153	=153	=153	=153	=153
*	*	*	*^	*	*
1ryy	1ryy	.	(12dd\L 12bbn	4ryy	.	.
.	.	.	12gg\	.	.	.
.	.	.	12dd\J	.	.	.
.	.	.	12bn/L	6ryy	.	.
.	.	.	12d/)	.	.	.
.	.	.	12gg/J	12g^\	.	.
.	.	.	(12bb/L	4b^\	.	.
.	.	.	12aa#X/	.	.	.
.	.	.	12bb/J)	.	.	.
.	.	.	(12ddd/L	4dd^\	.	.
.	.	.	12ccc#X/	.	.	.
.	.	.	12ddd/J)	.	.	.
=154	=154	=154	=154	=154	=154	=154
1ryy	1ryy	.	4ggg/	4gg\	.	sf
.	.	.	8r	4ryy	.	.
.	.	.	8G'^>/	.	.	.
.	.	.	4d'^>/	2ryy	.	.
.	.	.	4g'^>/	.	.	.
*	*	*	*v	*v	*	*
=155	=155	=155	=155	=155	=155
!	!	!	!	!	!LO:DY:rj
1ryy	1ryy	.	2Gu/ 2b- 2dd	.	ff
.	.	.	4Gu/ 4b- 4dd	.	.
.	.	.	4c#Xv/ 4e 4a 4ee	.	.
=156	=156	=156	=156	=156	=156
1ryy	1ryy	.	4du/ 4a 4ff	.	.
.	.	.	2fu/ 2a 2dd	.	.
.	.	.	4gv\ 4b- 4gg	.	.
=157	=157	=157	=157	=157	=157
1ryy	1ryy	.	(8Au/L 8e 8a 8ee	.	mf >
.	.	.	8e/ 8cc#X	.	.
.	.	.	8c#X/ 8a	.	.
.	.	.	8A/J) 8e	.	]
.	.	.	(8c#/L 8a	.	<
.	.	.	8e/ 8cc#	.	.
.	.	.	8.a/ 8.ee	.	.
.	.	.	16a/Jk) 16ee	.	[[
!	!	!	!LO:LB:g=original	!	!
=158	=158	=158	=158	=158	=158
1ryy	1ryy	.	(8cc#X\L 8aa	.	>
.	.	.	8a\ 8ee	.	.
.	.	.	8e\ 8cc#	.	.
.	.	.	8c#X\J) 8a	.	]
.	.	.	(8e\L 8cc#	.	<
.	.	.	8a\ 8ee	.	.
.	.	.	8.cc#\ 8.aa	.	.
.	.	.	16cc#\Jk) 16aa	.	[[
=159	=159	=159	=159	=159	=159
1ryy	1ryy	.	4Gu/ 4d 4b- 4bb-	.	ff
.	.	.	2Gu/ 2d 2b- 2gg	.	.
.	.	.	4cu\ 4g 4ee 4ccc	.	.
=160	=160	=160	=160	=160	=160
!	!	!	!LO:TX:b:i:t=accelerando	!	!
1ryy	1ryy	.	(12fu\L 12cc 12aa	.	mf
.	.	.	12ccc\	.	.
.	.	.	12aa\J	.	.
.	.	.	12ff\L	.	.
.	.	.	12aa\	.	.
.	.	.	12ff\J)	.	.
.	.	.	(12cc\L	.	.
.	.	.	12ff\	.	.
.	.	.	12cc\J	.	.
.	.	.	12a\L	.	.
.	.	.	12cc\	.	.
.	.	.	12a\J)	.	.
=161	=161	=161	=161	=161	=161
1ryy	1ryy	.	4du\ 4aa 4fff	.	ff
.	.	.	2du\ 2ff 2ddd	.	.
.	.	.	4Gv\ 4d 4bbn 4ggg	.	.
=162	=162	=162	=162	=162	=162
1ryy	1ryy	.	(12cu\L 12g 12ee 12eee	.	.
.	.	.	12ggg\	.	.
.	.	.	12eee\J	.	.
.	.	.	12ccc\L	.	.
.	.	.	12eee\	.	.
.	.	.	12ccc\J	.	.
.	.	.	12gg\L	.	.
.	.	.	12ccc\	.	.
.	.	.	12gg\J	.	.
.	.	.	12ee\L	.	.
.	.	.	12gg\	.	.
.	.	.	12ee\J)	.	.
=163	=163	=163	=163	=163	=163
1ryy	1ryy	.	(12cc\L	.	.
.	.	.	12ee\	.	.
.	.	.	12cc\J	.	.
!	!	!	!	!	!LO:HP:t=dim.
.	.	.	12g/L	.	>
.	.	.	12cc/	.	.
.	.	.	12g/J	.	.
.	.	.	12e/L	.	.
.	.	.	12g/	.	.
.	.	.	12e/J	.	.
.	.	.	12c/L	.	.
.	.	.	12e/	.	.
.	.	.	12c/J)	.	.
!	!	!	!LO:LB:g=original	!	!
=164	=164	=164	=164	=164	=164
1ryy	1ryy	.	(12Bn/L	.	.
.	.	.	12c/	.	.
.	.	.	12e/J	.	.
.	.	.	12g/L	.	.
.	.	.	12e/	.	.
.	.	.	12c/J	.	.
!	!	!	!LO:TX:b:i:t=ritard.	!	!
.	.	.	12B/L	.	.
.	.	.	12c/	.	.
.	.	.	12e/J	.	.
.	.	.	12g/L	.	.
.	.	.	12e/	.	.
.	.	.	12c/J)	.	.
=165	=165	=165	=165	=165	=165
1ryy	1ryy	.	(12B-X^>/L	.	p
.	.	.	12c/	.	.
.	.	.	12e/J	.	.
.	.	.	12g/L	.	.
.	.	.	12e/	.	.
.	.	.	12c/J	.	.
.	.	.	12B-^>/L	.	.
.	.	.	12c/	.	.
.	.	.	12e/J	.	.
.	.	.	12g/L	.	.
.	.	.	12e/	.	.
.	.	.	12B-/J)	.	.
=166	=166	=166	=166	=166	=166
!	!	!	!LO:TX:a:i:t=a tempo	!	!
1ryy	1ryy	.	(12A/L	.	f
.	.	.	12c#X/	.	.
.	.	.	12e/J	.	.
.	.	.	12a\L	.	.
.	.	.	12cc#X\	.	.
.	.	.	12ee\J	.	.
.	.	.	12aa\L	.	.
.	.	.	12ee\	.	.
.	.	.	12cc#\J	.	.
.	.	.	8a/)	.	.
.	.	.	8r	.	.
=167	=167	=167	=167	=167	=167
!	!	!	!	!	!LO:DY:rj
1ryy	1ryy	.	(8.dv/L 8.f 8.a	.	sf
.	.	.	16c#X/Jk) 16e 16a	.	.
.	.	.	2d/ 2f 2a	.	.
.	.	.	4Bnv/ 4d 4a	.	.
=168	=168	=168	=168	=168	=168
1ryy	1ryy	.	(16c#X/LL	.	.
.	.	.	16e/	.	.
.	.	.	16a/	.	.
.	.	.	16cc#X/JJ	.	.
.	.	.	12ee\L	.	.
.	.	.	12aa\	.	.
.	.	.	12ccc#X\J	.	.
.	.	.	12eee\L	.	.
.	.	.	12ccc#\	.	.
.	.	.	12aa\J	.	.
.	.	.	8ee\)	.	.
.	.	.	8r	.	.
!	!	!	!LO:LB:g=original	!	!
=169	=169	=169	=169	=169	=169
1ryy	1ryy	.	(8.a'\L 8.dd 8.ff	.	sf
.	.	.	16a'\Jk) 16dd 16ee	.	.
.	.	.	2au\ 2dd 2ff	.	.
.	.	.	4ev\ 4dd 4gg	.	.
=170	=170	=170	=170	=170	=170
1ryy	1ryy	.	12Au/L 12f 12dd 12aa	.	f
.	.	.	12Av/ 12f	.	.
.	.	.	12Au/J 12f	.	.
.	.	.	(12Av/L 12f	.	.
.	.	.	12d/) 12a	.	.
.	.	.	12d/J 12a	.	.
.	.	.	12d/L 12a	.	.
.	.	.	12f/ 12dd	.	.
.	.	.	12f/J 12dd	.	.
.	.	.	(12f/L 12dd	.	.
.	.	.	12d/) 12a	.	.
.	.	.	12d/J 12a	.	.
=171	=171	=171	=171	=171	=171
1ryy	1ryy	.	(12d/L 12a	.	.
.	.	.	12f/) 12dd	.	.
.	.	.	12f/J 12dd	.	.
.	.	.	(12f\L 12dd	.	.
.	.	.	12a\) 12ff	.	.
.	.	.	12a\J 12ff	.	.
.	.	.	(12a\L 12ff	.	.
.	.	.	12dd\) 12aa	.	.
.	.	.	12dd\J 12aa	.	.
.	.	.	(12dd\L 12aa	.	.
.	.	.	12ff\) 12ddd	.	.
.	.	.	12ff\J 12ddd	.	.
=172	=172	=172	=172	=172	=172
1ryy	1ryy	.	(8.aa'\L 8.fff	.	<
.	.	.	16gg#X'\Jk) 16eee	.	.
.	.	.	[4aau\ [4fff	.	[
.	.	.	12aa\L] 12fff]	.	.
.	.	.	(12dd\ 12aa	.	.
.	.	.	12ee\J 12ccc#X	.	.
.	.	.	12ff\L) 12ddd	.	.
.	.	.	12a'\ 12ff	.	.
.	.	.	12dd'\J 12aa	.	.
=173	=173	=173	=173	=173	=173
1ryy	1ryy	.	12dd'\L 12aa	.	.
.	.	.	(12f\ 12dd	.	.
.	.	.	12g#X\J 12ee	.	.
.	.	.	12a/L) 12ff	.	.
.	.	.	12d'/ 12a	.	.
.	.	.	12f'/J 12dd	.	.
.	.	.	12f'/L 12dd	.	.
.	.	.	12d'/ 12f	.	.
.	.	.	12c#X'/J 12e	.	.
.	.	.	(12e^>/L 12g#	.	.
.	.	.	12d/) 12f	.	.
.	.	.	12A/J 12e	.	.
!	!	!	!LO:LB:g=original	!	!
=174	=174	=174	=174	=174	=174
1ryy	1ryy	.	16B-'/LL 16g#X	.	ff
.	.	.	16dd'/ 16ee	.	.
.	.	.	16dd'/ 16ee	.	.
.	.	.	16B-'/JJ 16g#	.	.
*	*	*	*Xtuplet	*	*
.	.	.	12B-'/L 12g#	.	.
.	.	.	(12dd'/ 12ee	.	.
.	.	.	12B-'/J) 12g#	.	.
.	.	.	8g#'\ 8dd 8ff	.	.
.	.	.	8r	.	.
.	.	.	8g#'\ 8dd 8ee	.	.
.	.	.	8r	.	.
=175	=175	=175	=175	=175	=175
1ryy	1ryy	.	16Bn'/LL 16g#X	.	.
.	.	.	16dd'/ 16ee	.	.
.	.	.	16dd'/ 16ee	.	.
.	.	.	16B'/JJ 16g#	.	.
.	.	.	12B'/L 12g#	.	.
.	.	.	(12dd'/ 12ee	.	.
.	.	.	12B'/J) 12g#	.	.
.	.	.	8g#'\ 8dd 8ff	.	.
.	.	.	8r	.	.
.	.	.	8g#'\ 8dd 8ee	.	.
.	.	.	8r	.	.
=176	=176	=176	=176	=176	=176
1ryy	1ryy	.	16A'/LL 16f	.	.
.	.	.	16dd'/ 16aa	.	.
.	.	.	16dd'/ 16aa	.	.
.	.	.	16A'/JJ 16f	.	.
.	.	.	12A'/L 12f	.	.
.	.	.	12dd'/ 12aa	.	.
.	.	.	12A'/J 12f	.	.
.	.	.	8A'/ 8f 8dd 8bb-	.	.
.	.	.	8r	.	.
.	.	.	8A'/ 8f 8dd 8aa	.	.
.	.	.	8r	.	.
=177	=177	=177	=177	=177	=177
1ryy	1ryy	.	16A'/LL 16e	.	.
.	.	.	16dd'/ 16aa	.	.
.	.	.	16dd'/ 16aa	.	.
.	.	.	16A'/JJ 16e	.	.
.	.	.	12A'/L 12e	.	.
.	.	.	(12dd'/ 12aa	.	.
.	.	.	12A'/J) 12e	.	.
.	.	.	8A'/ 8e 8cc#X 8bb-	.	.
.	.	.	8r	.	.
.	.	.	8A'/ 8e 8cc# 8aa	.	.
.	.	.	8r	.	.
=178	=178	=178	=178	=178	=178
*	*	*	*^	*	*
*	*	*	*	*cue	*	*
1ryy	1ryy	.	1et	4A\	.	f
.	.	.	.	4r	.	.
.	.	.	.	2r	.	.
=179	=179	=179	=179	=179	=179	=179
1ryy	1ryy	.	4..et/	4..A\	.	.
.	.	.	16et/	16A\	.	.
.	.	.	4a^/	4et\	.	.
.	.	.	4ee^/	4et\ 4a	.	.
=180	=180	=180	=180	=180	=180	=180
!	!	!	!	!	!	!LO:DY:rj
1ryy	1ryy	.	1et	4A\	.	sf
.	.	.	.	4r	.	.
.	.	.	.	2r	.	.
!	!	!	!	!LO:LB:g=original	!	!
=181	=181	=181	=181	=181	=181	=181
!	!	!	!	!	!	!LO:HP:a
1ryy	1ryy	.	4..et/	4..A\	.	<
.	.	.	16et/	16A\	.	.
.	.	.	4a/	4et\	.	[
.	.	.	4aa/	4et\ 4a	.	.
=182	=182	=182	=182	=182	=182	=182
!	!	!	!	!	!	!LO:HP:a
1ryy	1ryy	.	4..et/	4..A\	.	<
.	.	.	16et/	16A\	.	.
.	.	.	4a/	4et\	.	[
.	.	.	4aa/	4et\ 4a	.	.
=183	=183	=183	=183	=183	=183	=183
!	!	!	!	!	!	!LO:HP:a
1ryy	1ryy	.	4..et/	4..A\	.	<
.	.	.	16et/	16A\	.	.
.	.	.	4a/	4et\	.	[
.	.	.	4aa/	4et\ 4a	.	.
*	*	*	*v	*v	*	*
=184	=184	=184	=184	=184	=184
1ryy	1ryy	.	(12A/L	.	.
.	.	.	12c#X/	.	.
.	.	.	12e/J	.	.
.	.	.	12a\L	.	.
.	.	.	12cc#X\	.	.
.	.	.	12ee\J	.	.
.	.	.	12aa\L	.	.
.	.	.	12ccc#X\	.	.
.	.	.	12eee\J	.	.
*	*	*	*8va	*	*
.	.	.	12aaa\L	.	.
.	.	.	12cccc#X\	.	.
.	.	.	12eeee\J	.	.
*	*	*	*X8va	*	*
=185	=185	=185	=185	=185	=185
*	*	*	*^	*	*
1ryy	1ryy	.	4aaa\)	4ryy	.	ff
.	.	.	4a/	4At\	.	.
.	.	.	4a^t/	4a\	.	.
.	.	.	4aa^t/	4a\	.	.
=186	=186	=186	=186	=186	=186	=186
1ryy	1ryy	.	(2eeet/	2a\	.	sf
.	.	.	2aat/)	2a\	.	sf
=187	=187	=187	=187	=187	=187	=187
1ryy	1ryy	.	[2at/	2a\	.	sf
.	.	.	2a/]	2At\	.	.
=188	=188	=188	=188	=188	=188	=188
1ryy	1ryy	.	1at	1a	.	sf
=189	=189	=189	=189	=189	=189	=189
*	*	*	*	*	*	*^
!	!	!	!	!	!	!LO:DY:b	!LO:HP:b:t=dimi_nu_en_do:ext=ud
1ryy	1ryy	.	1b-T	1b-	.	sf	>
=190	=190	=190	=190	=190	=190	=190	=190
!	!	!	!	!	!	!LO:DY:b	!
1ryy	1ryy	.	1bnt	1b	.	sf	.
=191	=191	=191	=191	=191	=191	=191	=191
!	!	!	!	!	!	!LO:DY:b	!
1ryy	1ryy	.	[1cc#Xtt	[1cc#	.	sf	.
=192	=192	=192	=192	=192	=192	=192	=192
!	!	!	!	!	!	!LO:DY:b	!
1ryy	1ryy	.	1cc#_ttt	4cc#\]	.	p	]
.	.	.	.	4r	.	.	.
.	.	.	.	2r	.	.	.
*	*	*	*	*Xcue	*	*	*
*	*	*	*	*	*	*v	*v
*	*	*	*v	*v	*	*
=193	=193	=193	=193	=193	=193
!	!	!	!LO:TX:b:i:t=ritard.	!	!
1ryy	1ryy	.	1cc#;]	.	]
.	.	.	16qqbn;/LL	.	pp
.	.	.	16qqcc#X;/JJ	.	.
*	*	*	*Xcue	*	*
*	*clefF4	*	*	*	*
!	!	!	!LO:LB:g=original	!	!
=194	=194	=194	=194	=194	=194
*MM84	*MM84	*	*MM84	*	*
!	!LO:TX:a:B:t=Tempo I.	!	!LO:TX:a:B:t=Tempo I.	!	!
1DD 1AA	(2F\ 2A 2d	p	(16dd/LL	.	p
.	.	.	16d/	.	.
.	.	.	16f/	.	.
.	.	.	16a/JJ	.	.
.	.	.	16ff\LL	.	.
.	.	.	16dd\	.	.
.	.	.	16a\	.	.
.	.	.	16f\JJ	.	.
.	4D\ 4F 4A	.	16dd\LL	.	.
.	.	.	16a\	.	.
.	.	.	16ff\	.	.
.	.	.	16dd\JJ	.	.
.	4F\) 4A 4d	.	16aa\LL	.	.
.	.	.	16ff\	.	.
.	.	.	16dd\	.	.
.	.	.	16a\JJ	.	.
=195	=195	=195	=195	=195	=195
4AAA/ 4AA	(4A\ 4c#X 4e	.	16ee\LL)	.	<
.	.	.	(16a\	.	.
.	.	.	16bn\	.	.
.	.	.	16cc#X\JJ	.	.
2DD/ 2AA	2A\ 2d 2f	.	16dd\LL	.	.
.	.	.	16ee\	.	.
.	.	.	16ff\	.	.
.	.	.	16gg\JJ	.	.
.	.	.	16aa\LL	.	.
.	.	.	16bbn\	.	.
.	.	.	16ccc#X\	.	.
.	.	.	16ddd\JJ	.	.
4GG/	4Bn\) 4f 4a	.	16aa\LL	.	.
.	.	.	16ddd\	.	.
.	.	.	16aa\	.	.
.	.	.	16gg\JJ)	.	[[
*	*clefG2	*	*	*	*
=196	=196	=196	=196	=196	=196
*	*X8va	*	*	*	*
*^	*^	*	*	*	*
4r	1CC 1GG	4r	1c 1e 1g	.	(16gg\LL	.	mf >
.	.	.	.	.	16ccc\	.	.
.	.	.	.	.	16gg\	.	.
.	.	.	.	.	16ff\JJ	.	.
8r	.	8r	.	.	16ee\LL	.	.
.	.	.	.	.	16ff\	.	.
8GG'/	.	8G'/	.	.	16ff#X\	.	.
.	.	.	.	.	16gg\JJ	.	.
4C'/	.	4c'/	.	.	16ffn\LL	.	.
.	.	.	.	.	16ee\	.	.
.	.	.	.	.	16dd\	.	.
.	.	.	.	.	16cc\JJ	.	.
4G'/	.	4g'/	.	.	16bn\LL	.	.
.	.	.	.	.	16cc\	.	.
.	.	.	.	.	16dd\	.	.
.	.	.	.	.	16ee\JJ	.	]]
!	!	!	!	!	!LO:LB:g=original	!	!
=197	=197	=197	=197	=197	=197	=197	=197
*cue	*	*	*	*	*	*	*
4c'/	1CC 1GG 1E	(<4cc/	4e\ 4g	.	16cc/LL)	.	<
*Xcue	*	*	*	*	*	*	*
.	.	.	.	.	(16c/	.	.
.	.	.	.	.	16e/	.	.
.	.	.	.	.	16g/JJ	.	.
4ryy	.	2c/ 2e 2g	2.ryy	.	16ee/LL	.	.
.	.	.	.	.	16cc/	.	.
.	.	.	.	.	16g/	.	.
.	.	.	.	.	16e/JJ	.	.
2ryy	.	.	.	.	16cc\LL	.	.
.	.	.	.	.	16g\	.	.
.	.	.	.	.	16ee\	.	.
.	.	.	.	.	16cc\JJ	.	.
.	.	4G/) 4c 4e	.	.	16gg\LL	.	.
.	.	.	.	.	16ee\	.	.
.	.	.	.	.	16cc\	.	.
.	.	.	.	.	16g\JJ)	.	[[
*v	*v	*	*	*	*	*	*
*	*v	*v	*	*	*	*
!LO:LB:g=original	!LO:LB:g=original	!	!	!	!
=198	=198	=198	=198	=198	=198
2AAA/ 2AA	(2E/ 2A 2c	.	(16cc/LL	.	>
.	.	.	16bn/	.	.
.	.	.	16a/	.	.
.	.	.	16e/JJ	.	.
.	.	.	16a\LL	.	.
.	.	.	16b\	.	.
.	.	.	16cc\	.	.
.	.	.	16ee\JJ	.	.
4GGG/ 4GG	4G/ 4Bn 4d	.	16gg\LL	.	.
.	.	.	16g\	.	.
.	.	.	16gg\	.	.
.	.	.	16dd\JJ	.	.
4CCC/ 4CC	4G/ 4c 4e	.	16cc\LL	.	.
.	.	.	16g\	.	.
.	.	.	16cc\	.	.
.	.	.	16ee\JJ)	.	]]
=199	=199	=199	=199	=199	=199
*^	*^	*	*	*	*
1GGG 1GG	4rF	1G) 1Bn 1d	4ra	.	(16gg\LL	.	<
.	.	.	.	.	16aa\	.	.
.	.	.	.	.	16bbn\	.	.
.	.	.	.	.	16ccc\JJ	.	[
.	8rF	.	8ra	.	16ddd\LL	.	>
.	.	.	.	.	16bb\	.	.
.	8GG'>/	.	8G'>/	.	16gg\	.	.
.	.	.	.	.	16dd\JJ	.	]
.	4D'>/	.	4d'>/	.	16gg\LL	.	<
.	.	.	.	.	16bn\	.	.
.	.	.	.	.	16cc\	.	.
.	.	.	.	.	16cc#X\JJ	.	[
.	4G'>/	.	4g'>/	.	16dd/LL	.	>
.	.	.	.	.	16b/	.	.
.	.	.	.	.	16g/	.	.
.	.	.	.	.	16d/JJ)	.	]]
!	!	!	!	!	!LO:LB:g=original	!	!
=200	=200	=200	=200	=200	=200	=200	=200
*	*cue	*	*cue	*	*	*	*
2GG/	4d'>\	(2.G/ 2.B-X 2.d	4dd'>/	.	(16gg\LL	.	p
*	*Xcue	*	*Xcue	*	*	*	*
.	.	.	.	.	16aa\	.	.
.	.	.	.	.	16bb-X\	.	.
.	.	.	.	.	16cccn\JJ	.	.
.	4ryy	.	4ryy	.	16ddd\LL	.	.
.	.	.	.	.	16bb-\	.	.
.	.	.	.	.	16gg\	.	.
.	.	.	.	.	16dd\JJ	.	.
4EE/	2ryy	.	2ryy	.	16gg\LL	.	.
.	.	.	.	.	16dd\	.	.
.	.	.	.	.	16cc\	.	.
.	.	.	.	.	16b-\JJ	.	.
4AA/	.	4G/) 4A 4c#X 4e	.	.	16a\LL	.	.
.	.	.	.	.	16e\	.	.
.	.	.	.	.	16a\	.	.
.	.	.	.	.	16aa\JJ)	.	.
*v	*v	*	*	*	*	*	*
*	*v	*v	*	*	*	*
=201	=201	=201	=201	=201	=201
2.DD/ 2.AA	(4F/ 4A 4d 4f	.	(16aa\LL	.	.
.	.	.	16ff\	.	.
.	.	.	16dd\	.	.
.	.	.	16a\JJ	.	.
.	2F/ 2A 2d	.	16f/LL	.	.
.	.	.	16e/	.	.
.	.	.	16d/	.	.
.	.	.	16e/JJ	.	.
.	.	.	16f\LL	.	<
.	.	.	16a\	.	.
.	.	.	16dd\	.	.
.	.	.	16ff\JJ	.	.
4GGG/ 4GG	4B-/) 4d 4g	.	16dd\LL	.	.
.	.	.	16ee\	.	.
.	.	.	16ff\	.	.
.	.	.	16gg\JJ)	.	.
!LO:LB:g=original	!LO:LB:g=original	!	!	!	!
=202	=202	=202	=202	=202	=202
*^	*^	*	*	*	*
1AAA 1AA	4rF	1A 1c#X 1e	4ra	.	(16aa\LL	.	.
.	.	.	.	.	16ee\	.	.
.	.	.	.	.	16aa\	.	.
.	.	.	.	.	16eee\JJ	.	[
.	8rF	.	8ra	.	16ccc#X\LL	.	>
.	.	.	.	.	16bbn\	.	.
.	8AA'>/	.	8A'>/	.	16aa\	.	.
.	.	.	.	.	16ee\JJ	.	.
.	4E'>/	.	4e'>/	.	16a/LL	.	.
.	.	.	.	.	16e/	.	.
.	.	.	.	.	16a/	.	.
.	.	.	.	.	16ee/JJ	.	.
.	4A'>/	.	4a'>/	.	16cc#X/LL	.	.
.	.	.	.	.	16bn/	.	.
.	.	.	.	.	16a/	.	.
.	.	.	.	.	16e/JJ)	.	]]
!	!	!	!	!	!LO:LB:g=original	!	!
=203	=203	=203	=203	=203	=203	=203	=203
*	*cue	*	*cue	*	*	*	*
(2A\ 2d 2f	4d'>\	(2a\ 2dd 2ff	4dd'>/	.	(16d/LL	.	.
*	*Xcue	*	*Xcue	*	*	*	*
.	.	.	.	.	16f/	.	.
.	.	.	.	.	16a/	.	.
.	.	.	.	.	16dd/JJ	.	.
.	4ryy	.	4ryy	.	16ff\LL	.	.
.	.	.	.	.	16aa\	.	.
.	.	.	.	.	16ddd\	.	<
.	.	.	.	.	16fff\JJ	.	.
4G\ 4A 4e	2ryy	4g\ 4a 4ee	2ryy	.	16eee\LL	.	.
.	.	.	.	.	16ee\	.	.
.	.	.	.	.	16ccc#X\	.	.
.	.	.	.	.	16eee\JJ	.	.
4F\) 4A 4d	.	4f/) 4a 4dd	.	.	16fff\LL	.	.
.	.	.	.	.	16ff\	.	.
.	.	.	.	.	16ddd\	.	.
.	.	.	.	.	16fff\JJ)	.	.
=204	=204	=204	=204	=204	=204	=204	=204
1AA 1E	2Bn/	(4g/ 4dd 4aa	2r	.	(12aaa\L	.	.
.	.	.	.	.	12aa\	.	.
.	.	.	.	.	12aaa\J)	.	.
.	.	2bn^/	.	>	(16ggg\LL	.	.
.	.	.	.	.	16fff\	.	.
.	.	.	.	.	16eee\	.	.
.	.	.	.	.	16ddd\JJ	.	.
.	4A/	.	2e\	.	12ccc#X\L	.	.
.	.	.	.	.	12bbn\	.	.
.	.	.	.	.	12aa\J	.	.
.	4G/	4cc#X/)	.	]	12gg\L	.	.
.	.	.	.	.	12ff\	.	.
.	.	.	.	.	12ee\J)	.	.
=205	=205	=205	=205	=205	=205	=205	=205
1AA	2F/	(4f/ 4a 4dd 4ff	2r	.	(12ff\L	1	.
.	.	.	.	.	12fff\	4	.
.	.	.	.	.	12ff\J)	.	.
.	.	2g#X^/	.	>	(12ddd\L	2	.
.	.	.	.	.	12gg#X\	.	.
.	.	.	.	.	12dd\J	1	.
.	2A/	.	2d\ 2f	.	12ff\L	.	.
.	.	.	.	.	12g#X\	2	.
.	.	.	.	.	12dd\J	1	.
.	.	4a/)	.	]	12ff\L	1	.
.	.	.	.	.	12aa\	.	.
.	.	.	.	.	12ddd\J)	.	.
*v	*v	*	*	*	*	*	*
*	*v	*v	*	*	*	*
=206	=206	=206	=206	=206	=206
*	*	*	*	*above	*
1GG 1G	1B- 1e-X 1b-	p	(8bb-\L	4	mf <
!	!	!	!LO:TX:a:t=II	!	!
.	.	.	8b-\	.	.
.	.	.	8ee-X\	.	.
.	.	.	8gg\J	.	.
.	.	.	8ff\L	.	.
.	.	.	8ee-\	.	.
.	.	.	8b-\	.	.
.	.	.	8bb-\J)	.	[[
!LO:LB:g=original	!LO:LB:g=original	!	!	!	!
=207	=207	=207	=207	=207	=207
(8AA/	1A 1d 1f 1a	mf > ]]	[1aa	.	sf >
4D\	.	.	.	.	.
8F\	.	.	.	.	.
8E\L	.	.	.	.	.
8D\	.	.	.	.	.
8AA\	.	.	.	.	.
8A\J)	.	.	.	.	.
=208	=208	=208	=208	=208	=208
*	*^	*	*	*	*
1AA 1G	1A 1c#X 1e 1a	(8A</	.	4aa\]	.	]
.	.	4c#X</	.	.	.	.
.	.	.	.	4r	.	.
!	!LO:TX:b:i:t=poco riten.	!	!	!	!	!
.	.	8e/	.	.	.	.
.	.	8g/L	.	2r	.	.
.	.	8a/	.	.	.	.
.	.	8cc#X/	.	.	.	.
.	.	8ee/J)	.	.	.	.
!	!	!	!	!LO:PB:g=original	!	!
=209	=209	=209	=209	=209	=209	=209
*MM126	*MM126	*	*	*MM126	*	*
!	!LO:TX:a:B:t=F:rj	!	!	!LO:TX:a:t=2	!	!
!	!LO:TX:b:i:t=m.g.	!	!	!LO:TX:a:B:t=Più mosso.	!	!
!	!LO:TX:a:B:t=Più mosso.	!	!	!LO:TX:a:t=F:rj	!	!
[1DD [1AA [1F	(8a/L 8ff	8r	p	1r	.	.
.	8dd/	8f\L	.	.	.	.
.	8a/	8d\	.	.	.	.
.	8f/J	8A\J	.	.	.	.
.	8a/L	8d\L	.	.	.	.
.	8dd/	8f\	.	.	.	.
.	8.ff/	8.a\	.	.	.	.
.	16aa/Jk)	16dd\Jk	.	.	.	.
=210	=210	=210	=210	=210	=210	=210
2..DD/] 2..AA] 2..F]	(8aa/L	8dd\L	.	1r	.	.
.	8ff/	8a\	.	.	.	.
.	8dd/	8f\	.	.	.	.
.	8a/J	8d\J	.	.	.	.
.	8dd/L	8f\L	<	.	.	.
.	8ff/	8a\	.	.	.	.
.	8aa/J)	8dd\J	.	.	.	.
*clefG2	*	*	*	*	*	*
16r	16r	8ryy	.	.	.	.
16c/ 16g#X	16cc\ 16ee 16gg# 16ccc	.	[ sf	.	.	.
*	*v	*v	*	*	*	*
=211	=211	=211	=211	=211	=211
[1f [1a	[1cc [1ff [1ccc	p	(8fff\	.	.
.	.	.	4gg#X^\	.	.
.	.	.	8aa\)	.	.
.	.	.	(8ccc\	.	.
.	.	.	4ee^\	.	.
.	.	.	8ff\)	.	.
=212	=212	=212	=212	=212	=212
2f/] 2a]	2cc\] 2ff] 2ccc]	.	(8aa\L	.	.
.	.	.	8bn\	.	.
.	.	.	8cc\	.	.
.	.	.	8ff\J	.	.
2r	2r	.	8g#X/L	.	.
.	.	.	8a/	.	.
.	.	.	8cc/	.	.
.	.	.	8f/J)	.	.
*clefF4	*	*	*	*	*
!LO:PB:g=original	!LO:PB:g=original	!	!	!	!
=213	=213	=213	=213	=213	=213
*	*^	*	*	*	*
!	!LO:TX:b:i:t=m.g.	!	!	!LO:TX:a:t=2	!	!
[1AAA [1EE [1C	(8e/L 8cc	8r	p	1r	.	.
.	8a/	8c\L	.	.	.	.
.	8e/	8A\	.	.	.	.
.	8c/J	8E\J	.	.	.	.
.	8e/L	8A\L	.	.	.	.
.	8a/	8c\	.	.	.	.
.	8.cc/	8.e\	.	.	.	.
.	16ee/Jk)	16a\Jk	.	.	.	.
=214	=214	=214	=214	=214	=214	=214
2..AAA/] 2..EE] 2..C]	(8ee/L	8a\L	.	1r	.	.
.	8cc/	8e\	.	.	.	.
.	8a/	8c\	.	.	.	.
.	8e/J	8A\J	.	.	.	.
.	8a/L	8c\L	<	.	.	.
.	8cc/	8e\	.	.	.	.
.	8ee/J)	8a\J	.	.	.	.
16r	16r	8ryy	[	.	.	.
16G\ 16d#X	16g'\ 16bn 16dd#X 16gg	.	sf	.	.	.
*	*v	*v	*	*	*	*
=215	=215	=215	=215	=215	=215
[1c [1e	[<1g [>1cc [>1ee [>1gg	p	(8ccc\	.	mf
.	.	.	4dd#X^\	.	.
.	.	.	8ee\)	.	.
.	.	.	(8gg\	.	.
.	.	.	4bn^\	.	.
.	.	.	8cc\)	.	.
=216	=216	=216	=216	=216	=216
2c\] 2e]	2g\] 2cc] 2ee] 2gg]	.	(8ee/L	.	.
.	.	.	8f#X/	.	>
.	.	.	8g/	.	.
.	.	.	8cc/J	.	.
2r	2r	.	8d#X/L	.	.
.	.	.	8e/	.	.
.	.	.	8g/	.	.
.	.	.	8cc/J)	.	]]
!	!	!	!LO:LB:g=original	!	!
=217	=217	=217	=217	=217	=217
*^	*^	*	*	*	*
(4BB-/	2ryy	(4G/ 4e	2c\	.	(16ee\LL	.	.
.	.	.	.	.	16g\	.	.
.	.	.	.	.	16cc\	.	.
.	.	.	.	.	16ee\JJ	.	.
4AA/)	.	4F/) 4f	.	.	8ff^\)	.	sf
.	.	.	.	.	8r	.	.
2C/	(4EE\	(4G/	2c\	.	(16gg\LL	.	.
.	.	.	.	.	16cc\	.	.
.	.	.	.	.	16ee\	.	.
.	.	.	.	.	16gg\JJ	.	.
.	4FF\)	4A/)	.	.	8aa^\)	.	sf
.	.	.	.	.	8r	.	.
*v	*v	*	*	*	*	*	*
*	*v	*v	*	*	*	*
!LO:LB:g=original	!LO:LB:g=original	!	!	!	!
=218	=218	=218	=218	=218	=218
1FF#X 1D	1A 1c 1d	.	(8ddd\	.	mf
.	.	.	4ee#X^\	.	.
.	.	.	8ff#X\	.	.
.	.	.	8aa\L)	.	.
.	.	.	(8dd\	.	.
.	.	.	8ff#\)	.	.
.	.	.	8a'\J	.	.
=219	=219	=219	=219	=219	=219
*^	*^	*	*	*	*
2D/	(4C\	(4A/ 4f#X	2d\	.	(16dd\LL	.	.
.	.	.	.	.	16a\	.	.
.	.	.	.	.	16dd\	.	.
.	.	.	.	.	16ff#X\JJ	.	.
.	4BB-\)	4G/) 4g	.	.	8gg^\)	.	sf
.	.	.	.	.	8r	.	<
2D/	(4FF#X\	(4A/ 4a	2d\	<	(16aa\LL	.	.
.	.	.	.	.	16dd\	.	.
.	.	.	.	.	16aa\	.	.
.	.	.	.	.	16ddd\JJ	.	.
.	4GG\)	4B-/) 4b-	.	.	8bb-^\)	.	sf
.	.	.	.	.	8r	.	.
=220	=220	=220	=220	=220	=220	=220	=220
2d/	(4c\	2dd/	(4a\	.	(16dd\LL	.	.
.	.	.	.	.	16a\	.	.
.	.	.	.	.	16dd\	.	.
.	.	.	.	.	16ff#X\JJ	.	.
.	4B-\)	.	4g\)	.	8gg^\)	.	sf
.	.	.	.	.	8r	.	.
2A\ 2d	2ryy	2f#X/ 2cc 2dd	2ryy	<	(16ff#X\LL	.	<
.	.	.	.	.	16gg\	.	.
.	.	.	.	.	16aa\	.	.
.	.	.	.	.	16bb-\JJ	.	.
.	.	.	.	.	16ccc\LL	.	.
.	.	.	.	.	16ddd\	.	.
.	.	.	.	.	16eee\	.	.
.	.	.	.	[[	16fff#\JJ	.	[[
*v	*v	*	*	*	*	*	*
*	*v	*v	*	*	*	*
!	!	!	!LO:LB:g=original	!	!
=221	=221	=221	=221	=221	=221
1B- 1d	1g 1dd	mf >]	8ggg\)	.	f
.	.	.	(4aa\	.	>
.	.	.	8bb-\	.	.
.	.	.	8ddd\L)	.	.
.	.	.	(8gg\	.	.
.	.	.	8bb-\)	.	.
.	.	.	8dd'\J	.	]]
!LO:LB:g=original	!LO:LB:g=original	!	!	!	!
=222	=222	=222	=222	=222	=222
1G 1B-	1d 1g	p	8gg\	.	.
.	.	.	(4a^>/	.	mf
.	.	.	8b-/	.	.
.	.	.	8dd/L	.	.
.	.	.	8g/	.	.
.	.	.	8b-/	.	.
.	.	.	8d/J)	.	.
=223	=223	=223	=223	=223	=223
(2G\	[1B- [1d	.	(8g/L	.	p
.	.	.	8B-/	.	.
.	.	.	8d/	.	.
.	.	.	8G/J)	.	.
2F\	.	.	(8b-/L	.	.
.	.	.	8d/	.	.
.	.	.	8g/	.	.
.	.	.	8B-/J)	.	.
=224	=224	=224	=224	=224	=224
2E\)	2B-/] 2d]	.	(8g/L	.	.
.	.	.	8B-/	.	.
.	.	.	8d/	.	.
.	.	.	8G/J)	.	.
2r	2r	.	(8c#X/L	.	<
.	.	.	8d/	.	.
.	.	.	8e/	.	.
.	.	.	8f#X/J)	.	[[
=225	=225	=225	=225	=225	=225
*^	*	*	*	*	*
!	!	!LO:TX:b:i:t=dim. e ritard.	!	!	!	!
(>4A\	4ryy	[1B- [1d	.	(12g/L	.	p
.	.	.	.	12B-/	.	.
.	.	.	.	12d/J	.	.
!LO:N:vis=2.	!	!	!	!	!	!LO:HP:t=dim.
2G\	[>2.G/	.	.	12c#X/L	.	>
.	.	.	.	12d/	.	.
.	.	.	.	12G/J)	.	.
.	.	.	.	(12b-/L	.	.
.	.	.	.	12d/	.	.
.	.	.	.	12g/J	.	.
[<4F\	.	.	.	12f#X/L	.	.
.	.	.	.	12g/	.	.
.	.	.	.	12B-/J)	.	.
!	!	!	!	!LO:LB:g=original	!	!
=226	=226	=226	=226	=226	=226	=226
*	*	*^	*	*	*	*
4F\]	1G]	2B-/] 2d]	2ryy	.	(12g/L	.	.
.	.	.	.	.	12B-/	.	.
!	!	!	!	!	!LO:TX:b:i:t=e ritard	!	!
.	.	.	.	.	12d/J	.	.
4E\	.	.	.	.	12c#X/L	.	.
.	.	.	.	.	12d/	.	.
.	.	.	.	.	12G/J)	.	.
4D\	.	4f/	2B-\	.	(12g/L	.	.
.	.	.	.	.	12a/	.	.
.	.	.	.	.	12b-/J	.	.
4C\)	.	4e/	.	.	12f#X/L	.	.
.	.	.	.	.	12g/	.	.
.	.	.	.	.	12cc/J)	.	.
*	*	*v	*v	*	*	*	*
!LO:LB:g=original	!LO:LB:g=original	!LO:LB:g=original	!	!	!	!
=227	=227	=227	=227	=227	=227	=227
*MM84	*MM84	*MM84	*	*MM84	*	*
!	!	!	!	!LO:TX:b:i:t=dolce	!	!
!	!	!LO:TX:a:B:t=G:rj	!	!LO:TX:a:i:t=a tempo primo	!	!
!	!	!LO:TX:a:B:t=Tempo I.	!	!LO:TX:a:t=G:rj	!	!
1C 1F 1A	4r	1c 1f 1a	p	(8cc/L	.	p
.	.	.	.	8a/	.	.
.	4FFF\ 4FF	.	.	8f/	.	.
.	.	.	.	8c/J	.	.
.	2rCC	.	.	8f/L	.	.
.	.	.	.	8a/	.	.
.	.	.	.	8.cc/	.	.
.	.	.	.	16cc/Jk)	.	.
=228	=228	=228	=228	=228	=228	=228
1D 1F 1A	4r	1d 1f 1a	.	4.dd\	.	.
.	4FFF\ 4FF	.	.	.	.	.
.	.	.	.	(8a\L	.	<
.	2rCC	.	.	8ee\	.	.
.	.	.	.	8ff\J	.	[
.	.	.	.	8.a/L	.	.
.	.	.	.	16a'/Jk)	.	.
=229	=229	=229	=229	=229	=229	=229
1D 1G 1B-	4r	1d 1g 1b-	.	4.dd\	.	.
.	4FFF\ 4FF	.	.	.	.	.
.	.	.	.	(8g/L	.	.
.	2rCC	.	.	8a/	.	.
.	.	.	.	8b-/J	.	.
.	.	.	.	8.d/L	.	.
.	.	.	.	16d'/Jk)	.	.
=230	=230	=230	=230	=230	=230	=230
2.C/ 2.G 2.B-	4r	2.c/ 2.e 2.b-	.	(8g/L	.	.
.	.	.	.	8e/	.	.
.	4FFF\ 4FF	.	.	8c/)	.	.
.	.	.	.	(8e'/J	.	.
.	2rCC	.	<	8e/L	.	<
.	.	.	.	8f/	.	.
4C#X/ 4E 4A	.	4c#X/ 4e 4a	[	8g/	.	.
.	.	.	.	8a/J)	.	[[
!	!	!	!	!LO:LB:g=original	!	!
=231	=231	=231	=231	=231	=231	=231
2.D/ 2.F 2.A	4r	2.d/ 2.f 2.a	>	4.a/	.	.
.	4FFF\ 4FF	.	.	.	.	.
.	.	.	.	(8d/L	.	>
.	2rCC	.	.	8e/	.	.
.	.	.	.	8f/J	.	.
4D/ 4F	.	4A/ 4d	]	8.A/L	.	]
.	.	.	.	16A/Jk)	.	.
*v	*v	*	*	*	*	*
!LO:LB:g=original	!LO:LB:g=original	!	!	!	!
=232	=232	=232	=232	=232	=232
*	*	*	*tuplet	*	*
!	!	!	!LO:TUP:b	!	!LO:HP:a
1GG 1D 1F	1B- 1d	.	(<12d/L	.	<
.	.	.	12c/	.	.
.	.	.	12B-/J	.	.
!	!	!	!LO:TUP:b	!	!
.	.	.	12G/L	.	.
.	.	.	12A/	.	.
.	.	.	12B-/J	.	.
!	!	!	!LO:TUP:b	!	!
.	.	.	12d/L	.	.
.	.	.	12f#X/	.	.
.	.	.	12g/J	.	[
!	!	!	!LO:TUP:b	!	!LO:HP:a
.	.	.	12dd/L	.	>
.	.	.	12b-/	.	.
.	.	.	12g/J)	.	]]
*	*	*	*Xtuplet	*	*
=233	=233	=233	=233	=233	=233
*	*^	*	*	*	*
!	!	!	!LO:HP:t=dim.	!	!	!
(2.C/	1E 1B- 1e	(>2d/	>	(16e/LL	.	.
.	.	.	.	16c/	.	.
.	.	.	.	16d/	.	.
.	.	.	.	16e/JJ	.	.
.	.	.	.	16f/LL	.	.
.	.	.	.	16g/	.	.
.	.	.	.	16a/	.	.
.	.	.	.	16b-/JJ	.	.
.	.	2c/)	.	16cc\LL	.	.
!	!	!	!	!	!	!LO:HP:t=dim.
.	.	.	.	16dd\	.	>
.	.	.	.	16ee\	.	.
.	.	.	.	16ff\JJ	.	.
4CC/)	.	.	.	16gg\LL	.	.
.	.	.	.	16aa\	.	.
.	.	.	.	16bb-\	.	.
.	.	.	.	16bbn\JJ)	.	.
*	*v	*v	*	*	*	*
=234	=234	=234	=234	=234	=234
*^	*	*	*	*	*
1C 1F 1A	4r	1c 1f 1a 1cc	pp	(8ccc\L	.	pp
.	.	.	.	8aa\	.	.
.	4FF\ 4F	.	.	8ff\	.	.
.	.	.	.	8cc\J	.	.
.	2r	.	.	8ff\L	.	.
.	.	.	.	8aa\	.	.
.	.	.	.	8.ccc\	.	.
.	.	.	.	16ccc\Jk)	.	.
!	!	!	!	!LO:LB:g=original	!	!
=235	=235	=235	=235	=235	=235	=235
1D-X 1F 1A-X	4r	1d-X 1f 1a-X 1dd-X	<	4.ddd-X\	.	.
.	4FF\ 4F	.	.	.	.	.
.	.	.	.	(8aa-X\L	.	<
.	2r	.	.	8ccc\	.	.
.	.	.	.	8ddd-\J	.	.
.	.	.	.	8.aa-\L	.	.
.	.	.	.	16aa-'\Jk)	.	.
!LO:PB:g=original	!LO:PB:g=original	!LO:PB:g=original	!	!	!	!
=236	=236	=236	=236	=236	=236	=236
1En 1G 1An	4r	1c#X 1g 1a 1cc#X	p	4.ccc#X\	.	p
.	4EEn\ 4En	.	.	.	.	.
.	.	.	.	(8aa\L	.	.
.	2r	.	<	8bb#X\	.	.
.	.	.	.	8ccc#\J	.	<
.	.	.	.	8.aa\L	.	.
.	.	.	.	16aa'\Jk)	.	.
=237	=237	=237	=237	=237	=237	=237
1F 1A	4r	2.d/ 2.f 2.a 2.dd	mf	(4eee\	.	mf
.	4DD\ 4D	.	.	4ddd\)	.	.
.	4r	.	.	(4.aa\	.	.
.	4CC\ 4C	4f\ 4a 4dd 4ff	.	.	.	.
.	.	.	.	8ddd\)	.	.
=238	=238	=238	=238	=238	=238	=238
1F 1B- 1d	4r	1f 1b- 1dd 1ff	.	4.ddd\	.	<
.	4BBB-\ 4BB-	.	<	.	.	.
!	!	!	!	!LO:TX:b:i:t=poco agitato	!	!
.	.	.	.	(8bb-\L	.	.
.	2rCC	.	.	8ccc#X\	.	.
.	.	.	.	8ddd\J	.	.
.	.	.	.	8.bb-\L	.	.
.	.	.	.	16bb-\Jk)	.	.
=239	=239	=239	=239	=239	=239	=239
1B- 1d 1f	4r	1b- 1dd 1ff 1aa-X	.	4.fff\	.	.
.	4BBB-\ 4BB-	.	.	.	.	.
.	.	.	.	(8ddd\L	.	.
.	2rCC	.	.	8eee\	.	.
.	.	.	.	8fff\J	.	.
.	.	.	.	8.ddd\L	.	.
.	.	.	.	16ddd\Jk)	.	.
!	!	!	!	!LO:LB:g=original	!	!
=240	=240	=240	=240	=240	=240	=240
!	!	!	!LO:DY:rj	!	!	!
2.A/ 2.d 2.f	4r	2.an\ 2.dd 2.ff 2.aan	mf	(8aaa\L	.	f
.	.	.	.	8fff\	.	.
.	4AAA\ 4AA	.	.	8ddd\	.	.
.	.	.	.	8aa\J	.	.
.	2rCC	.	.	8ddd\L	.	.
.	.	.	.	8fff\	.	.
4A/ 4d 4f	.	4a\ 4dd 4ff 4aa	.	8.aaa\	.	.
.	.	.	.	16aaa'\Jk)	.	.
!LO:LB:g=original	!LO:LB:g=original	!LO:LB:g=original	!	!	!	!
=241	=241	=241	=241	=241	=241	=241
2.B-/ 2.d 2.e	4r	2.g\ 2.dd 2.ee 2.gg	.	4.ggg\	.	.
.	4AAA\ 4AA	.	.	.	.	.
.	.	.	.	(8ddd\L	.	.
.	2rCC	.	.	8eee\	.	.
.	.	.	.	8fff\J	.	.
!	!	!	!LO:HP:t=dim.	!	!	!
4A/ 4e 4g	.	4a\ 4cc#X 4ee 4gg	>	8.ggg\L	.	.
!	!	!	!	!	!	!LO:HP:t=diminuendo
.	.	.	.	16ggg'\Jk)	.	>
=242	=242	=242	=242	=242	=242	=242
*	*	*^	*	*	*	*
2.A/ 2.d 2.f	4r	2.a\ 2.ff	4ee/	.	4.fff\	.	.
.	4AAA\ 4AA	.	2dd/	.	.	.	.
.	.	.	.	.	(8ddd\L	.	.
.	2rCC	.	.	.	8eee\	.	.
.	.	.	.	.	8fff\J	.	.
4F/ 4d	.	4a\ 4dd	4ryy	.	8.aa\L	.	.
.	.	.	.	.	16aa'\Jk)	.	.
*v	*v	*	*	*	*	*	*
=243	=243	=243	=243	=243	=243	=243
2G\ 2e	2b-\ 2dd	2ryy	.	(8ddd\L	.	.
.	.	.	.	8bb-\	.	.
.	.	.	.	8aa\	.	.
.	.	.	.	8gg\J	.	.
2A\ 2e	2g/ 2cc#X	(4b-\	.	8bb-\L	.	.
.	.	.	.	8gg\	.	.
.	.	4a\)	.	8ff\	.	.
.	.	.	.	8ee\J)	.	.
*	*v	*v	*	*	*	*
!	!	!	!LO:LB:g=original	!	!
=244	=244	=244	=244	=244	=244
4r	2.d/ 2.f 2.a	p	(8aa\L	.	mp
.	.	.	8ff\	.	.
4AAA/ 4AA	.	.	8dd\	.	.
.	.	.	8a\J	.	.
2r	.	.	8dd\L	.	.
.	.	.	8ff\	.	.
.	4d/ 4f 4a	.	8.aa\	.	.
.	.	.	16aa'\Jk)	.	.
=245	=245	=245	=245	=245	=245
4r	2.B-/ 2.d 2.g	.	4.gg\	.	.
4AAA/ 4AA	.	.	.	.	.
.	.	.	(8dd\L	.	.
2r	.	.	8ee\	.	.
.	.	.	8ff\J	.	.
.	4B-/ 4d 4g	.	8.gg\L	.	.
.	.	.	16gg'\Jk)	.	.
=246	=246	=246	=246	=246	=246
!	!	!LO:HP:t=dim.	!	!	!LO:HP:t=dimin.
4r	2.A/ 2.d 2.f	>	4.ff\	.	>
4AAA/ 4AA	.	.	.	.	.
.	.	.	(8dd\L	.	.
2r	.	.	8ee\	.	.
.	.	.	8ff\J	.	.
.	4F/ 4A 4d	.	8.a/L	.	.
.	.	.	16a'/Jk)	.	.
!LO:LB:g=original	!LO:LB:g=original	!	!	!	!
=247	=247	=247	=247	=247	=247
1GGG 1GG	1F 1B- 1d	.	(8dd/L	.	.
.	.	.	8b-/	.	.
.	.	.	8a/	.	.
.	.	.	8g/J	.	.
.	.	.	8b-/L	.	.
.	.	.	8g/	.	.
.	.	.	8f/	.	.
.	.	.	8e/J)	.	.
=248	=248	=248	=248	=248	=248
2GG/ 2D	2B-/ 2d 2e	pp	8r	.	.
.	.	.	(8b-^>/L	.	p
.	.	.	8a/	.	.
.	.	.	8g/J)	.	.
2GG/ 2E	2B-/ 2d 2b-	.	8r	.	.
.	.	.	(8g^>/L	.	.
.	.	.	8f/	.	.
.	.	.	8e/J)	.	.
!	!	!	!LO:LB:g=original	!	!
=249	=249	=249	=249	=249	=249
1r	1r	.	8r	.	.
!	!	!	!LO:TX:a:i:t=ritenuto	!	!
.	.	.	(8B-/L	.	mf
.	.	.	8A/	.	.
.	.	.	8G/J)	.	.
.	.	.	(4B-/	.	.
.	.	.	4d/)	.	.
=250	=250	=250	=250	=250	=250
*	*^	*	*	*	*
!	!	!	!LO:DY:rj	!	!	!
1AAA 1AA	1G 1c#X	(>2B-/	sf >	(2.f/	.	f >
.	.	2A/)	.	.	.	.
.	.	.	]	4e/)	.	]]
*	*v	*v	*	*	*	*
*	*clefF4	*	*	*	*
=251	=251	=251	=251	=251	=251
*MM84	*MM84	*	*MM84	*	*
!	!LO:TX:b:i:t=e tranquillo	!	!LO:TX:a:B:t=Tempo I.	!	!
!	!LO:TX:a:B:t=H:rj	!	!LO:TUP:problem:klamra łukowa t.251-256	!	!
!	!LO:TX:a:B:t=Tempo I.	!	!LO:TX:a:t=H:rj	!	!
1DD 1AA	(2F\ 2A 2d	p	12d/L	2	p
!	!	!	!LO:TX:b:i:t=e tranquillo	!	!
.	.	.	12d/	0	.
.	.	.	12d/J	2	.
.	.	.	12f/L	.	.
.	.	.	12e/	.	.
.	.	.	12d/J	.	.
.	4D\ 4F 4A	.	12a/L	.	.
.	.	.	12A/	.	.
.	.	.	12a/J	.	.
.	4F\) 4A 4d	.	12a/L	.	.
.	.	.	12A/	.	.
.	.	.	12a/J	.	.
!LO:LB:g=original	!LO:LB:g=original	!	!	!	!
=252	=252	=252	=252	=252	=252
4AAA/ 4AA	(4A\ 4c#X 4e	<	12e/L 12a	.	.
.	.	.	12A/	.	.
.	.	.	12e/J 12a	.	<
2DD/ 2AA	2A\ 2d 2f	.	12f/L 12a	.	.
.	.	.	12A/	.	.
.	.	.	12f/J 12a	.	.
.	.	.	12f/L 12a	.	.
.	.	.	12A/	.	.
.	.	.	12f/J 12a	.	.
4AAA/ 4AA	4c#\) 4e 4a	.	12e/L 12cc#X	.	.
.	.	.	12A/	.	.
.	.	.	12e/J 12cc#	.	.
*	*clefG2	*	*	*	*
!	!	!	!LO:LB:g=original	!	!
=253	=253	=253	=253	=253	=253
1DDD 1DD	(2f/ 2a 2dd	mf	12dd/L	.	mf
.	.	.	12d/	.	.
.	.	.	12dd/J	.	.
.	.	.	12ff\L	.	.
.	.	.	12ee\	.	.
.	.	.	12dd\J	.	.
.	4d/ 4f 4a	.	12aa\L	.	.
.	.	.	12a\	.	.
.	.	.	12aa\J	.	.
.	4f/) 4a 4dd	.	12aa\L	.	.
.	.	.	12a\	.	.
.	.	.	12aa\J	.	.
=254	=254	=254	=254	=254	=254
4AA\ 4A	(4e/ 4a 4cc#X 4ee	<	12a/L 12ee	.	.
.	.	.	12A/ 12e	.	.
.	.	.	12a/J 12ee	.	.
2DD/ 2D	2f\ 2a 2dd 2ff	.	12a/L 12ff	.	.
.	.	.	12d/	.	.
.	.	.	12a/J 12ff	.	.
.	.	.	12a/L 12ff	.	.
.	.	.	12d/	.	.
.	.	.	12a/J 12ff	.	.
4AAA/ 4AA	4a\) 4cc# 4ee 4aa	.	12cc#X/L 12aa	.	.
.	.	.	12A/ 12e	.	.
.	.	.	12cc#/J 12aa	.	.
=255	=255	=255	=255	=255	=255
4AA\ 4A	(4e/ 4a 4cc#X 4ee	f	12a/L 12ee	.	f
.	.	.	12A/ 12e	.	.
.	.	.	12a/J 12ee	.	.
2DD/ 2D	2f\ 2a 2dd 2ff	.	12a/L 12ff	.	.
.	.	.	12d/	.	.
.	.	.	12a/J 12ff	.	.
.	.	.	12a/L 12ff	.	.
.	.	.	12d/	.	.
.	.	.	12a/J 12ff	.	.
4AAA/ 4AA	4a\) 4cc# 4ee 4aa	.	12cc#X/L 12aa	.	.
.	.	.	12A/ 12e	.	.
.	.	.	12cc#/J 12aa	.	.
!LO:LB:g=original	!LO:LB:g=original	!	!LO:LB:g=original	!	!
=256	=256	=256	=256	=256	=256
4AA\ 4A	(4ee\ 4aa 4ccc#X 4eee	<	12eee\L	.	.
.	.	.	12ee\	.	<
.	.	.	12eee\J	.	.
2DD/ 2D	2ff\ 2aa 2ddd 2fff	.	12fff\L	.	.
.	.	.	12ff\	.	.
.	.	.	12fff\J	.	.
.	.	.	12fff\L	.	.
.	.	.	12ff\	.	.
.	.	.	12fff\J	.	.
4AAA/ 4AA	4aa\) 4ccc# 4eee 4aaa	.	12aaa\L	.	.
.	.	.	12aa\	.	.
.	.	.	12aaa\J	.	.
=257	=257	=257	=257	=257	=257
*^	*^	*	*	*	*
*	*	*8va	*	*	*	*	*
[<1DDD [<1DD	2ryy	[1dd [>1ff [>1aa [>1ddd	2ryy	ff	4ddd\ 4cccc	.	ff
.	.	.	.	.	2dd^\ 2ddd	.	.
.	4F\ 4A 4d	.	4f\ 4a 4dd 4ff	.	.	.	.
.	4rF	.	4r	.	[4dd^\ [4ddd	.	.
=258	=258	=258	=258	=258	=258	=258	=258
1DDD] 1DD]	4A\ 4d 4f	1dd] 1ff] 1aa] 1ddd]	4a\ 4dd 4ff 4aa	.	4dd\] 4ddd]	.	.
.	4rF	.	4r	.	4dd^\ 4ddd	.	.
.	4F\ 4A 4d	.	4f\ 4a 4dd 4ff	.	4dd^\ 4ddd	.	.
.	4rF	.	4r	.	4dd^\ 4ddd	.	.
*v	*v	*	*	*	*	*	*
*	*v	*v	*	*	*	*
*	*X8va	*	*	*	*
=259	=259	=259	=259	=259	=259
1DD 1AA 1F	1d 1f 1a 1dd	ff	1dd 1ddd	.	ff
=260	=260	=260	=260	=260	=260
*	*	*	*^	*	*
!	!	!LO:DY:rj	!	!	!	!
2..DDD\ 2..DD	2..D</ 2..F< 2..A 2..d	sf	2..d/	2..d\	.	.
!LO:N:vis=16	!LO:N:vis=16	!	!LO:N:vis=16	!	!	!
8DDD\ 8DD	8D</ 8F< 8A 8d	.	8d/	8d\	.	.
=261	=261	=261	=261	=261	=261	=261
1DDD;< 1DD	1D<; 1F< 1A 1d	.	1d;	1d	.	ff
*	*	*	*v	*v	*	*
==	==	==	==	==	==
*-	*-	*-	*-	*-	*-
!!!system-decoration: (s1){(s2,s3)}
!!!RDF**kern: < = below
!!!RDF**kern: > = above
!!!ENC: Berenika Jozajtis
!!!END: 2022-12-05
!!!ENC: Marta Chmielewska
!!!END: 2023-07-19
!!!YEC: Copyright 2022 Narodowy Instytut Fryderyka Chopina (https://polishscores.org)
!!!YEM: License CC-BY-4.0 (https://creativecommons.org/licenses/by/4.0)
